;FLAVOR:Marlin
;TIME:644
;Filament used: 0.731994m
;Layer height: 0.3
;MINX:71.05
;MINY:93.45
;MINZ:0.3
;MAXX:148.95
;MAXY:126.55
;MAXZ:1.2
;Generated with Cura_SteamEngine 4.9.0
M140 S60
M105
M190 S60
M104 S200
M105
M109 S200
M82 ;absolute extrusion mode
G28 ;Home
G1 Z15.0 F2000 ;Move the platform
G92 E0
G92 E0
G1 F1500 E-6.5
;LAYER_COUNT:4
;LAYER:0
M107
M204 S1000
G0 F7500 X74.072 Y95.084 Z0.3
;TYPE:SKIRT
G1 F1500 E0
G1 X74.72 Y94.633 E0.03939
G1 X75.411 Y94.249 E0.07883
G1 X76.136 Y93.937 E0.11821
G1 X76.889 Y93.7 E0.15759
G1 X77.663 Y93.541 E0.19701
G1 X78.448 Y93.46 E0.23638
G1 X78.85 Y93.45 E0.25644
G1 X141.15 Y93.45 E3.3646
G1 X141.939 Y93.49 E3.40402
G1 X142.719 Y93.609 E3.44338
G1 X143.484 Y93.807 E3.48281
G1 X144.224 Y94.081 E3.52217
G1 X144.933 Y94.429 E3.56158
G1 X145.604 Y94.847 E3.60102
G1 X146.228 Y95.33 E3.64039
G1 X146.801 Y95.873 E3.67977
G1 X147.316 Y96.472 E3.71918
G1 X147.767 Y97.12 E3.75857
G1 X148.151 Y97.811 E3.79801
G1 X148.463 Y98.536 E3.83739
G1 X148.7 Y99.289 E3.87677
G1 X148.859 Y100.063 E3.91619
G1 X148.94 Y100.848 E3.95556
G1 X148.95 Y101.25 E3.97563
G1 X148.95 Y118.75 E4.8487
G1 X148.91 Y119.539 E4.88812
G1 X148.791 Y120.319 E4.92748
G1 X148.593 Y121.084 E4.96691
G1 X148.319 Y121.824 E5.00628
G1 X147.971 Y122.533 E5.04568
G1 X147.553 Y123.204 E5.08512
G1 X147.07 Y123.828 E5.12449
G1 X146.527 Y124.401 E5.16387
G1 X145.928 Y124.916 E5.20328
G1 X145.28 Y125.367 E5.24267
G1 X144.589 Y125.751 E5.28211
G1 X143.864 Y126.063 E5.32149
G1 X143.111 Y126.3 E5.36087
G1 X142.337 Y126.459 E5.40029
G1 X141.552 Y126.54 E5.43966
G1 X141.15 Y126.55 E5.45973
G1 X78.85 Y126.55 E8.56789
G1 X78.061 Y126.51 E8.6073
G1 X77.281 Y126.391 E8.64667
G1 X76.516 Y126.193 E8.68609
G1 X75.776 Y125.919 E8.72546
G1 X75.067 Y125.571 E8.76486
G1 X74.396 Y125.153 E8.8043
G1 X73.772 Y124.67 E8.84367
G1 X73.199 Y124.127 E8.88305
G1 X72.684 Y123.528 E8.92246
G1 X72.233 Y122.88 E8.96185
G1 X71.849 Y122.189 E9.00129
G1 X71.537 Y121.464 E9.04067
G1 X71.3 Y120.711 E9.08005
G1 X71.141 Y119.937 E9.11947
G1 X71.06 Y119.152 E9.15885
G1 X71.05 Y118.75 E9.17891
G1 X71.05 Y101.25 E10.05199
G1 X71.09 Y100.461 E10.0914
G1 X71.209 Y99.681 E10.13077
G1 X71.407 Y98.916 E10.17019
G1 X71.681 Y98.176 E10.20956
G1 X72.029 Y97.467 E10.24896
G1 X72.447 Y96.796 E10.2884
G1 X72.93 Y96.172 E10.32777
G1 X73.473 Y95.599 E10.36715
G1 X74.072 Y95.084 E10.40656
G0 F7500 X74.461 Y95.292
G1 F1500 X75.103 Y94.869 E10.44492
G1 X75.786 Y94.514 E10.48332
G1 X76.501 Y94.233 E10.52165
G1 X77.243 Y94.027 E10.56007
G1 X78.001 Y93.899 E10.59842
G1 X78.85 Y93.85 E10.64085
G1 X141.15 Y93.85 E13.74901
G1 X141.918 Y93.89 E13.78738
G1 X142.678 Y94.009 E13.82576
G1 X143.421 Y94.207 E13.86412
G1 X144.14 Y94.481 E13.90251
G1 X144.826 Y94.828 E13.94086
G1 X145.473 Y95.244 E13.97923
G1 X146.073 Y95.725 E14.0176
G1 X146.62 Y96.266 E14.05598
G1 X147.108 Y96.861 E14.09437
G1 X147.531 Y97.503 E14.13273
G1 X147.886 Y98.186 E14.17113
G1 X148.167 Y98.901 E14.20946
G1 X148.373 Y99.643 E14.24788
G1 X148.501 Y100.401 E14.28623
G1 X148.55 Y101.25 E14.32866
G1 X148.55 Y118.75 E15.20174
G1 X148.51 Y119.518 E15.24011
G1 X148.391 Y120.278 E15.27848
G1 X148.193 Y121.021 E15.31685
G1 X147.919 Y121.74 E15.35523
G1 X147.572 Y122.426 E15.39359
G1 X147.156 Y123.073 E15.43196
G1 X146.675 Y123.673 E15.47033
G1 X146.134 Y124.22 E15.50871
G1 X145.539 Y124.708 E15.5471
G1 X144.897 Y125.131 E15.58546
G1 X144.214 Y125.486 E15.62386
G1 X143.499 Y125.767 E15.66219
G1 X142.757 Y125.973 E15.70061
G1 X141.999 Y126.101 E15.73896
G1 X141.15 Y126.15 E15.78139
G1 X78.85 Y126.15 E18.88955
G1 X78.082 Y126.11 E18.92792
G1 X77.322 Y125.991 E18.96629
G1 X76.579 Y125.793 E19.00466
G1 X75.86 Y125.519 E19.04304
G1 X75.174 Y125.172 E19.0814
G1 X74.527 Y124.756 E19.11977
G1 X73.927 Y124.275 E19.15814
G1 X73.38 Y123.734 E19.19652
G1 X72.892 Y123.139 E19.23491
G1 X72.469 Y122.497 E19.27327
G1 X72.114 Y121.814 E19.31167
G1 X71.833 Y121.099 E19.35
G1 X71.627 Y120.357 E19.38842
G1 X71.499 Y119.599 E19.42677
G1 X71.45 Y118.75 E19.4692
G1 X71.45 Y101.25 E20.34228
G1 X71.49 Y100.482 E20.38065
G1 X71.609 Y99.722 E20.41902
G1 X71.807 Y98.979 E20.45739
G1 X72.081 Y98.26 E20.49577
G1 X72.428 Y97.574 E20.53413
G1 X72.844 Y96.927 E20.5725
G1 X73.325 Y96.327 E20.61087
G1 X73.866 Y95.78 E20.64925
G1 X74.461 Y95.292 E20.68764
G0 F7500 X74.848 Y95.507
G1 F1500 X75.484 Y95.112 E20.72499
G1 X76.158 Y94.788 E20.7623
G1 X76.863 Y94.538 E20.79962
G1 X77.591 Y94.364 E20.83697
G1 X78.333 Y94.269 E20.87429
G1 X78.85 Y94.25 E20.9001
G1 X141.15 Y94.25 E24.00826
G1 X141.897 Y94.29 E24.04558
G1 X142.635 Y94.409 E24.08287
G1 X143.357 Y94.607 E24.12022
G1 X144.053 Y94.88 E24.15752
G1 X144.716 Y95.227 E24.19486
G1 X145.339 Y95.642 E24.2322
G1 X145.913 Y96.121 E24.2695
G1 X146.434 Y96.658 E24.30683
G1 X146.893 Y97.248 E24.34412
G1 X147.288 Y97.884 E24.38147
G1 X147.612 Y98.558 E24.41878
G1 X147.862 Y99.263 E24.4561
G1 X148.036 Y99.991 E24.49345
G1 X148.131 Y100.733 E24.53077
G1 X148.15 Y101.25 E24.55658
G1 X148.15 Y118.75 E25.42966
G1 X148.11 Y119.497 E25.46698
G1 X147.991 Y120.235 E25.50427
G1 X147.793 Y120.957 E25.54162
G1 X147.52 Y121.653 E25.57892
G1 X147.173 Y122.316 E25.61626
G1 X146.758 Y122.939 E25.6536
G1 X146.279 Y123.513 E25.6909
G1 X145.742 Y124.034 E25.72823
G1 X145.152 Y124.493 E25.76552
G1 X144.516 Y124.888 E25.80287
G1 X143.842 Y125.212 E25.84018
G1 X143.137 Y125.462 E25.8775
G1 X142.409 Y125.636 E25.91484
G1 X141.667 Y125.731 E25.95216
G1 X141.15 Y125.75 E25.97798
G1 X78.85 Y125.75 E29.08614
G1 X78.103 Y125.71 E29.12346
G1 X77.365 Y125.591 E29.16075
G1 X76.643 Y125.393 E29.1981
G1 X75.947 Y125.12 E29.2354
G1 X75.284 Y124.773 E29.27273
G1 X74.661 Y124.358 E29.31008
G1 X74.087 Y123.879 E29.34738
G1 X73.566 Y123.342 E29.38471
G1 X73.107 Y122.752 E29.422
G1 X72.712 Y122.116 E29.45935
G1 X72.388 Y121.442 E29.49666
G1 X72.138 Y120.737 E29.53398
G1 X71.964 Y120.009 E29.57132
G1 X71.869 Y119.267 E29.60864
G1 X71.85 Y118.75 E29.63446
G1 X71.85 Y101.25 E30.50753
G1 X71.89 Y100.503 E30.54486
G1 X72.009 Y99.765 E30.58215
G1 X72.207 Y99.043 E30.6195
G1 X72.48 Y98.347 E30.6568
G1 X72.827 Y97.684 E30.69413
G1 X73.242 Y97.061 E30.73148
G1 X73.721 Y96.487 E30.76878
G1 X74.258 Y95.966 E30.80611
G1 X74.848 Y95.507 E30.8434
G0 F7500 X74.649 Y96.159
G1 F1500 X75.234 Y95.729 E30.87962
G1 X75.863 Y95.365 E30.91588
G1 X76.528 Y95.072 E30.95213
G1 X77.221 Y94.854 E30.98838
G1 X77.933 Y94.714 E31.02458
G1 X78.85 Y94.65 E31.07044
G1 X141.15 Y94.65 E34.1786
G1 X141.875 Y94.69 E34.21482
G1 X142.592 Y94.809 E34.25109
G1 X143.291 Y95.007 E34.28733
G1 X143.964 Y95.28 E34.32356
G1 X144.603 Y95.625 E34.35979
G1 X145.2 Y96.039 E34.39604
G1 X145.748 Y96.515 E34.43225
G1 X146.241 Y97.049 E34.46851
G1 X146.671 Y97.634 E34.50473
G1 X147.035 Y98.263 E34.54099
G1 X147.328 Y98.928 E34.57724
G1 X147.546 Y99.621 E34.61349
G1 X147.686 Y100.333 E34.64969
G1 X147.75 Y101.25 E34.69555
G1 X147.75 Y118.75 E35.56863
G1 X147.71 Y119.475 E35.60486
G1 X147.591 Y120.192 E35.64112
G1 X147.393 Y120.891 E35.67736
G1 X147.12 Y121.564 E35.71359
G1 X146.775 Y122.203 E35.74982
G1 X146.361 Y122.8 E35.78607
G1 X145.885 Y123.348 E35.82228
G1 X145.351 Y123.841 E35.85854
G1 X144.766 Y124.271 E35.89476
G1 X144.137 Y124.635 E35.93102
G1 X143.472 Y124.928 E35.96728
G1 X142.779 Y125.146 E36.00352
G1 X142.067 Y125.286 E36.03972
G1 X141.15 Y125.35 E36.08558
G1 X78.85 Y125.35 E39.19374
G1 X78.125 Y125.31 E39.22997
G1 X77.408 Y125.191 E39.26623
G1 X76.709 Y124.993 E39.30247
G1 X76.036 Y124.72 E39.33871
G1 X75.397 Y124.375 E39.37494
G1 X74.8 Y123.961 E39.41118
G1 X74.252 Y123.485 E39.4474
G1 X73.759 Y122.951 E39.48365
G1 X73.329 Y122.366 E39.51988
G1 X72.965 Y121.737 E39.55613
G1 X72.672 Y121.072 E39.59239
G1 X72.454 Y120.379 E39.62863
G1 X72.314 Y119.667 E39.66483
G1 X72.25 Y118.75 E39.71069
G1 X72.25 Y101.25 E40.58377
G1 X72.29 Y100.525 E40.62
G1 X72.409 Y99.808 E40.65626
G1 X72.607 Y99.109 E40.6925
G1 X72.88 Y98.436 E40.72874
G1 X73.225 Y97.797 E40.76497
G1 X73.639 Y97.2 E40.80121
G1 X74.115 Y96.652 E40.83743
G1 X74.649 Y96.159 E40.87369
G0 F7500 X75.039 Y96.359
G1 F1500 X75.618 Y95.959 E40.90879
G1 X76.239 Y95.627 E40.94393
G1 X76.893 Y95.367 E40.97904
G1 X77.573 Y95.183 E41.01418
G1 X78.269 Y95.077 E41.04931
G1 X78.85 Y95.05 E41.07833
G1 X141.15 Y95.05 E44.18648
G1 X141.853 Y95.09 E44.22161
G1 X142.547 Y95.209 E44.25674
G1 X143.222 Y95.407 E44.29184
G1 X143.871 Y95.679 E44.32695
G1 X144.485 Y96.024 E44.36208
G1 X145.056 Y96.435 E44.39718
G1 X145.577 Y96.909 E44.43232
G1 X146.041 Y97.439 E44.46747
G1 X146.441 Y98.018 E44.50258
G1 X146.773 Y98.639 E44.53771
G1 X147.033 Y99.293 E44.57282
G1 X147.217 Y99.973 E44.60796
G1 X147.323 Y100.669 E44.64309
G1 X147.35 Y101.25 E44.67211
G1 X147.35 Y118.75 E45.54518
G1 X147.31 Y119.453 E45.58031
G1 X147.191 Y120.147 E45.61544
G1 X146.993 Y120.822 E45.65054
G1 X146.721 Y121.471 E45.68565
G1 X146.376 Y122.085 E45.72078
G1 X145.965 Y122.656 E45.75588
G1 X145.491 Y123.177 E45.79102
G1 X144.961 Y123.641 E45.82617
G1 X144.382 Y124.041 E45.86127
G1 X143.761 Y124.373 E45.89641
G1 X143.107 Y124.633 E45.93152
G1 X142.427 Y124.817 E45.96666
G1 X141.731 Y124.923 E46.00179
G1 X141.15 Y124.95 E46.03081
G1 X78.85 Y124.95 E49.13896
G1 X78.147 Y124.91 E49.17409
G1 X77.453 Y124.791 E49.20922
G1 X76.778 Y124.593 E49.24432
G1 X76.129 Y124.321 E49.27943
G1 X75.515 Y123.976 E49.31456
G1 X74.944 Y123.565 E49.34966
G1 X74.423 Y123.091 E49.3848
G1 X73.959 Y122.561 E49.41995
G1 X73.559 Y121.982 E49.45506
G1 X73.227 Y121.361 E49.49019
G1 X72.967 Y120.707 E49.5253
G1 X72.783 Y120.027 E49.56044
G1 X72.677 Y119.331 E49.59557
G1 X72.65 Y118.75 E49.62459
G1 X72.65 Y101.25 E50.49766
G1 X72.69 Y100.547 E50.53279
G1 X72.809 Y99.853 E50.56792
G1 X73.007 Y99.178 E50.60302
G1 X73.279 Y98.529 E50.63813
G1 X73.624 Y97.915 E50.67326
G1 X74.035 Y97.344 E50.70836
G1 X74.509 Y96.823 E50.7435
G1 X75.039 Y96.359 E50.77865
G0 F7500 X75.428 Y96.567
G1 F1500 X76 Y96.198 E50.81261
G1 X76.612 Y95.899 E50.84659
G1 X77.254 Y95.674 E50.88053
G1 X77.919 Y95.525 E50.91453
G1 X78.85 Y95.45 E50.96113
G1 X141.15 Y95.45 E54.06928
G1 X141.83 Y95.49 E54.10327
G1 X142.5 Y95.609 E54.13722
G1 X143.152 Y95.806 E54.1712
G1 X143.776 Y96.078 E54.20516
G1 X144.364 Y96.422 E54.23915
G1 X144.908 Y96.832 E54.27313
G1 X145.399 Y97.303 E54.30708
G1 X145.833 Y97.828 E54.34106
G1 X146.202 Y98.4 E54.37502
G1 X146.501 Y99.012 E54.409
G1 X146.726 Y99.654 E54.44294
G1 X146.875 Y100.319 E54.47694
G1 X146.95 Y101.25 E54.52354
G1 X146.95 Y118.75 E55.39662
G1 X146.91 Y119.43 E55.4306
G1 X146.791 Y120.1 E55.46455
G1 X146.594 Y120.752 E55.49853
G1 X146.322 Y121.376 E55.53249
G1 X145.978 Y121.964 E55.56648
G1 X145.568 Y122.508 E55.60046
G1 X145.097 Y122.999 E55.63441
G1 X144.572 Y123.433 E55.66839
G1 X144 Y123.802 E55.70235
G1 X143.388 Y124.101 E55.73633
G1 X142.746 Y124.326 E55.77027
G1 X142.081 Y124.475 E55.80427
G1 X141.15 Y124.55 E55.85087
G1 X78.85 Y124.55 E58.95903
G1 X78.17 Y124.51 E58.99302
G1 X77.5 Y124.391 E59.02696
G1 X76.848 Y124.194 E59.06095
G1 X76.224 Y123.922 E59.09491
G1 X75.636 Y123.578 E59.12889
G1 X75.092 Y123.168 E59.16288
G1 X74.601 Y122.697 E59.19682
G1 X74.167 Y122.172 E59.23081
G1 X73.798 Y121.6 E59.26477
G1 X73.499 Y120.988 E59.29875
G1 X73.274 Y120.346 E59.33269
G1 X73.125 Y119.681 E59.36669
G1 X73.05 Y118.75 E59.41329
G1 X73.05 Y101.25 E60.28636
G1 X73.09 Y100.57 E60.32035
G1 X73.209 Y99.9 E60.3543
G1 X73.406 Y99.248 E60.38828
G1 X73.678 Y98.624 E60.42224
G1 X74.022 Y98.036 E60.45623
G1 X74.432 Y97.492 E60.49021
G1 X74.903 Y97.001 E60.52416
G1 X75.428 Y96.567 E60.55814
G0 F7500 X75.295 Y97.185
G1 F1500 X75.815 Y96.784 E60.5909
G1 X76.379 Y96.448 E60.62365
G1 X76.981 Y96.184 E60.65645
G1 X77.61 Y95.994 E60.68923
G1 X78.257 Y95.883 E60.72198
G1 X78.85 Y95.85 E60.75161
G1 X141.15 Y95.85 E63.85977
G1 X141.806 Y95.89 E63.89256
G1 X142.452 Y96.009 E63.92533
G1 X143.079 Y96.206 E63.95812
G1 X143.677 Y96.478 E63.99089
G1 X144.238 Y96.82 E64.02367
G1 X144.753 Y97.228 E64.05645
G1 X145.215 Y97.695 E64.08923
G1 X145.616 Y98.215 E64.12199
G1 X145.952 Y98.779 E64.15474
G1 X146.216 Y99.381 E64.18754
G1 X146.406 Y100.01 E64.22032
G1 X146.517 Y100.657 E64.25307
G1 X146.55 Y101.25 E64.2827
G1 X146.55 Y118.75 E65.15578
G1 X146.51 Y119.406 E65.18857
G1 X146.391 Y120.052 E65.22134
G1 X146.194 Y120.679 E65.25413
G1 X145.922 Y121.277 E65.2869
G1 X145.58 Y121.838 E65.31968
G1 X145.172 Y122.353 E65.35246
G1 X144.705 Y122.815 E65.38523
G1 X144.185 Y123.216 E65.41799
G1 X143.621 Y123.552 E65.45075
G1 X143.019 Y123.816 E65.48354
G1 X142.39 Y124.006 E65.51632
G1 X141.743 Y124.117 E65.54907
G1 X141.15 Y124.15 E65.5787
G1 X78.85 Y124.15 E68.68686
G1 X78.194 Y124.11 E68.71965
G1 X77.548 Y123.991 E68.75242
G1 X76.921 Y123.794 E68.78521
G1 X76.323 Y123.522 E68.81799
G1 X75.762 Y123.18 E68.85077
G1 X75.247 Y122.772 E68.88355
G1 X74.785 Y122.305 E68.91632
G1 X74.384 Y121.785 E68.94908
G1 X74.048 Y121.221 E68.98183
G1 X73.784 Y120.619 E69.01463
G1 X73.594 Y119.99 E69.04741
G1 X73.483 Y119.343 E69.08016
G1 X73.45 Y118.75 E69.10979
G1 X73.45 Y101.25 E69.98287
G1 X73.49 Y100.594 E70.01566
G1 X73.609 Y99.948 E70.04843
G1 X73.806 Y99.321 E70.08122
G1 X74.078 Y98.723 E70.11399
G1 X74.42 Y98.162 E70.14677
G1 X74.828 Y97.647 E70.17955
G1 X75.295 Y97.185 E70.21233
G0 F7500 X75.686 Y97.379
G1 F1500 X76.2 Y97.01 E70.24389
G1 X76.756 Y96.71 E70.27541
G1 X77.345 Y96.482 E70.30692
G1 X77.959 Y96.33 E70.33848
G1 X78.85 Y96.25 E70.38311
G1 X141.15 Y96.25 E73.49127
G1 X141.781 Y96.29 E73.52282
G1 X142.402 Y96.409 E73.55436
G1 X143.002 Y96.606 E73.58587
G1 X143.574 Y96.877 E73.61745
G1 X144.106 Y97.217 E73.64894
G1 X144.591 Y97.623 E73.6805
G1 X145.021 Y98.086 E73.71202
G1 X145.39 Y98.6 E73.74359
G1 X145.69 Y99.156 E73.77511
G1 X145.918 Y99.745 E73.80662
G1 X146.07 Y100.359 E73.83818
G1 X146.15 Y101.25 E73.88281
G1 X146.15 Y118.75 E74.75589
G1 X146.11 Y119.381 E74.78743
G1 X145.991 Y120.002 E74.81898
G1 X145.794 Y120.602 E74.85048
G1 X145.523 Y121.174 E74.88206
G1 X145.183 Y121.706 E74.91356
G1 X144.777 Y122.191 E74.94512
G1 X144.314 Y122.621 E74.97664
G1 X143.8 Y122.99 E75.00821
G1 X143.244 Y123.29 E75.03973
G1 X142.655 Y123.518 E75.07124
G1 X142.041 Y123.67 E75.10279
G1 X141.15 Y123.75 E75.14743
G1 X78.85 Y123.75 E78.25559
G1 X78.219 Y123.71 E78.28713
G1 X77.598 Y123.591 E78.31868
G1 X76.998 Y123.394 E78.35018
G1 X76.426 Y123.123 E78.38176
G1 X75.894 Y122.783 E78.41326
G1 X75.409 Y122.377 E78.44481
G1 X74.979 Y121.914 E78.47634
G1 X74.61 Y121.4 E78.50791
G1 X74.31 Y120.844 E78.53943
G1 X74.082 Y120.255 E78.57094
G1 X73.93 Y119.641 E78.60249
G1 X73.85 Y118.75 E78.64712
G1 X73.85 Y101.25 E79.5202
G1 X73.89 Y100.619 E79.55175
G1 X74.009 Y99.998 E79.58329
G1 X74.206 Y99.398 E79.6148
G1 X74.477 Y98.826 E79.64638
G1 X74.817 Y98.294 E79.67787
G1 X75.223 Y97.809 E79.70943
G1 X75.686 Y97.379 E79.74096
G0 F7500 X76.075 Y97.581
G1 F1500 X76.582 Y97.248 E79.77122
G1 X77.128 Y96.984 E79.80147
G1 X77.704 Y96.795 E79.83172
G1 X78.3 Y96.683 E79.86197
G1 X78.85 Y96.65 E79.88946
G1 X141.15 Y96.65 E82.99762
G1 X141.755 Y96.69 E83.02787
G1 X142.349 Y96.809 E83.0581
G1 X142.923 Y97.005 E83.08836
G1 X143.466 Y97.276 E83.11863
G1 X143.969 Y97.615 E83.14889
G1 X144.422 Y98.017 E83.17911
G1 X144.819 Y98.475 E83.20935
G1 X145.152 Y98.982 E83.23961
G1 X145.416 Y99.528 E83.26987
G1 X145.605 Y100.104 E83.30011
G1 X145.717 Y100.7 E83.33037
G1 X145.75 Y101.25 E83.35786
G1 X145.75 Y118.75 E84.23094
G1 X145.71 Y119.355 E84.26119
G1 X145.591 Y119.949 E84.29141
G1 X145.395 Y120.523 E84.32167
G1 X145.124 Y121.066 E84.35195
G1 X144.785 Y121.569 E84.38221
G1 X144.383 Y122.022 E84.41242
G1 X143.925 Y122.419 E84.44266
G1 X143.418 Y122.752 E84.47293
G1 X142.872 Y123.016 E84.50318
G1 X142.296 Y123.205 E84.53343
G1 X141.7 Y123.317 E84.56368
G1 X141.15 Y123.35 E84.59117
G1 X78.85 Y123.35 E87.69933
G1 X78.245 Y123.31 E87.72958
G1 X77.651 Y123.191 E87.7598
G1 X77.077 Y122.995 E87.79006
G1 X76.534 Y122.724 E87.82034
G1 X76.031 Y122.385 E87.8506
G1 X75.578 Y121.983 E87.88082
G1 X75.181 Y121.525 E87.91106
G1 X74.848 Y121.018 E87.94132
G1 X74.584 Y120.472 E87.97158
G1 X74.395 Y119.896 E88.00182
