;FLAVOR:Marlin
;TIME:10374
;Filament used: 11.3574m
;Layer height: 0.3
;MINX:68.138
;MINY:43.138
;MINZ:0.3
;MAXX:151.862
;MAXY:176.862
;MAXZ:17.4
;Generated with Cura_SteamEngine 4.9.0
M140 S70
M105
M190 S70
M104 S200
M105
M109 S200
M82 ;absolute extrusion mode
G28 ;Home
G1 Z15.0 F2000 ;Move the platform
G92 E0
G92 E0
G1 F1500 E-6.5
;LAYER_COUNT:58
;LAYER:0
M107
M204 S1000
G0 F7500 X69.535 Y46.484 Z0.3
;TYPE:SKIRT
G1 F1500 E0
G1 X70.018 Y45.86 E0.03937
G1 X70.561 Y45.287 E0.07875
G1 X71.16 Y44.772 E0.11816
G1 X71.808 Y44.321 E0.15755
G1 X72.499 Y43.937 E0.19699
G1 X73.224 Y43.625 E0.23637
G1 X73.977 Y43.388 E0.27575
G1 X74.751 Y43.229 E0.31517
G1 X75.536 Y43.148 E0.35455
G1 X75.938 Y43.138 E0.37461
G1 X144.062 Y43.138 E3.77333
G1 X144.851 Y43.178 E3.81274
G1 X145.631 Y43.297 E3.85211
G1 X146.396 Y43.495 E3.89153
G1 X147.136 Y43.769 E3.9309
G1 X147.845 Y44.117 E3.9703
G1 X148.516 Y44.535 E4.00974
G1 X149.14 Y45.018 E4.04911
G1 X149.713 Y45.561 E4.08849
G1 X150.228 Y46.16 E4.12791
G1 X150.679 Y46.808 E4.16729
G1 X151.063 Y47.499 E4.20673
G1 X151.375 Y48.224 E4.24611
G1 X151.612 Y48.977 E4.28549
G1 X151.771 Y49.751 E4.32492
G1 X151.852 Y50.536 E4.36429
G1 X151.862 Y50.938 E4.38435
G1 X151.862 Y169.062 E10.27758
G1 X151.822 Y169.851 E10.31699
G1 X151.703 Y170.631 E10.35636
G1 X151.505 Y171.396 E10.39578
G1 X151.231 Y172.136 E10.43515
G1 X150.883 Y172.845 E10.47455
G1 X150.465 Y173.516 E10.51399
G1 X149.982 Y174.14 E10.55336
G1 X149.439 Y174.713 E10.59275
G1 X148.84 Y175.228 E10.63216
G1 X148.192 Y175.679 E10.67155
G1 X147.501 Y176.063 E10.71099
G1 X146.776 Y176.375 E10.75036
G1 X146.023 Y176.612 E10.78975
G1 X145.249 Y176.771 E10.82917
G1 X144.464 Y176.852 E10.86854
G1 X144.062 Y176.862 E10.8886
G1 X75.938 Y176.862 E14.28732
G1 X75.149 Y176.822 E14.32674
G1 X74.369 Y176.703 E14.3661
G1 X73.604 Y176.505 E14.40552
G1 X72.864 Y176.231 E14.44489
G1 X72.155 Y175.883 E14.4843
G1 X71.484 Y175.465 E14.52374
G1 X70.86 Y174.982 E14.5631
G1 X70.287 Y174.439 E14.60249
G1 X69.772 Y173.84 E14.6419
G1 X69.321 Y173.192 E14.68129
G1 X68.937 Y172.501 E14.72073
G1 X68.625 Y171.776 E14.76011
G1 X68.388 Y171.023 E14.79949
G1 X68.229 Y170.249 E14.83891
G1 X68.148 Y169.464 E14.87828
G1 X68.138 Y169.062 E14.89834
G1 X68.138 Y50.938 E20.79157
G1 X68.178 Y50.149 E20.83099
G1 X68.297 Y49.369 E20.87035
G1 X68.495 Y48.604 E20.90978
G1 X68.769 Y47.864 E20.94915
G1 X69.117 Y47.155 E20.98855
G1 X69.535 Y46.484 E21.02799
G0 F7500 X69.932 Y46.615
G1 F1500 X70.413 Y46.015 E21.06635
G1 X70.954 Y45.468 E21.10474
G1 X71.549 Y44.98 E21.14313
G1 X72.191 Y44.557 E21.18149
G1 X72.874 Y44.202 E21.21989
G1 X73.589 Y43.921 E21.25822
G1 X74.331 Y43.715 E21.29663
G1 X75.089 Y43.587 E21.33499
G1 X75.938 Y43.538 E21.37741
G1 X144.062 Y43.538 E24.77613
G1 X144.83 Y43.578 E24.8145
G1 X145.59 Y43.697 E24.85288
G1 X146.333 Y43.895 E24.89124
G1 X147.052 Y44.169 E24.92963
G1 X147.738 Y44.516 E24.96798
G1 X148.385 Y44.932 E25.00636
G1 X148.985 Y45.413 E25.04473
G1 X149.532 Y45.954 E25.08311
G1 X150.02 Y46.549 E25.1215
G1 X150.443 Y47.191 E25.15986
G1 X150.798 Y47.874 E25.19826
G1 X151.079 Y48.589 E25.23659
G1 X151.285 Y49.331 E25.27501
G1 X151.413 Y50.089 E25.31336
G1 X151.462 Y50.938 E25.35579
G1 X151.462 Y169.062 E31.24902
G1 X151.422 Y169.83 E31.28738
G1 X151.303 Y170.59 E31.32576
G1 X151.105 Y171.333 E31.36412
G1 X150.831 Y172.052 E31.40251
G1 X150.484 Y172.738 E31.44087
G1 X150.068 Y173.385 E31.47924
G1 X149.587 Y173.985 E31.51761
G1 X149.046 Y174.532 E31.55599
G1 X148.451 Y175.02 E31.59438
G1 X147.809 Y175.443 E31.63274
G1 X147.126 Y175.798 E31.67114
G1 X146.411 Y176.079 E31.70947
G1 X145.669 Y176.285 E31.74789
G1 X144.911 Y176.413 E31.78624
G1 X144.062 Y176.462 E31.82867
G1 X75.938 Y176.462 E35.22739
G1 X75.17 Y176.422 E35.26575
G1 X74.41 Y176.303 E35.30413
G1 X73.667 Y176.105 E35.34249
G1 X72.948 Y175.831 E35.38088
G1 X72.262 Y175.484 E35.41924
G1 X71.615 Y175.068 E35.45761
G1 X71.015 Y174.587 E35.49598
G1 X70.468 Y174.046 E35.53436
G1 X69.98 Y173.451 E35.57275
G1 X69.557 Y172.809 E35.61111
G1 X69.202 Y172.126 E35.64951
G1 X68.921 Y171.411 E35.68784
G1 X68.715 Y170.669 E35.72626
G1 X68.587 Y169.911 E35.76461
G1 X68.538 Y169.062 E35.80704
G1 X68.538 Y50.938 E41.70027
G1 X68.578 Y50.17 E41.73863
G1 X68.697 Y49.41 E41.77701
G1 X68.895 Y48.667 E41.81538
G1 X69.169 Y47.948 E41.85376
G1 X69.516 Y47.262 E41.89212
G1 X69.932 Y46.615 E41.93049
G0 F7500 X70.33 Y46.749
G1 F1500 X70.809 Y46.175 E41.96779
G1 X71.346 Y45.654 E42.00512
G1 X71.936 Y45.195 E42.04241
G1 X72.572 Y44.8 E42.07976
G1 X73.246 Y44.476 E42.11707
G1 X73.951 Y44.226 E42.15439
G1 X74.679 Y44.052 E42.19174
G1 X75.421 Y43.957 E42.22906
G1 X75.938 Y43.938 E42.25487
G1 X144.062 Y43.938 E45.65359
G1 X144.809 Y43.978 E45.69091
G1 X145.547 Y44.097 E45.7282
G1 X146.269 Y44.295 E45.76555
G1 X146.965 Y44.568 E45.80285
G1 X147.628 Y44.915 E45.84019
G1 X148.251 Y45.33 E45.87753
G1 X148.825 Y45.809 E45.91483
G1 X149.346 Y46.346 E45.95216
G1 X149.805 Y46.936 E45.98945
G1 X150.2 Y47.572 E46.0268
G1 X150.524 Y48.246 E46.06411
G1 X150.774 Y48.951 E46.10143
G1 X150.948 Y49.679 E46.13878
G1 X151.043 Y50.421 E46.1761
G1 X151.062 Y50.938 E46.20191
G1 X151.062 Y169.062 E52.09514
G1 X151.022 Y169.809 E52.13246
G1 X150.903 Y170.547 E52.16975
G1 X150.705 Y171.269 E52.2071
G1 X150.432 Y171.965 E52.2444
G1 X150.085 Y172.628 E52.28174
G1 X149.67 Y173.251 E52.31908
G1 X149.191 Y173.825 E52.35638
G1 X148.654 Y174.346 E52.39371
G1 X148.064 Y174.805 E52.431
G1 X147.428 Y175.2 E52.46835
G1 X146.754 Y175.524 E52.50566
G1 X146.049 Y175.774 E52.54298
G1 X145.321 Y175.948 E52.58033
G1 X144.579 Y176.043 E52.61765
G1 X144.062 Y176.062 E52.64346
G1 X75.938 Y176.062 E56.04218
G1 X75.191 Y176.022 E56.0795
G1 X74.453 Y175.903 E56.11679
G1 X73.731 Y175.705 E56.15414
G1 X73.035 Y175.432 E56.19144
G1 X72.372 Y175.085 E56.22878
G1 X71.749 Y174.67 E56.26612
G1 X71.175 Y174.191 E56.30342
G1 X70.654 Y173.654 E56.34075
G1 X70.195 Y173.064 E56.37804
G1 X69.8 Y172.428 E56.41539
G1 X69.476 Y171.754 E56.4527
G1 X69.226 Y171.049 E56.49002
G1 X69.052 Y170.321 E56.52737
G1 X68.957 Y169.579 E56.56469
G1 X68.938 Y169.062 E56.5905
G1 X68.938 Y50.938 E62.48373
G1 X68.978 Y50.191 E62.52105
G1 X69.097 Y49.453 E62.55834
G1 X69.295 Y48.731 E62.59569
G1 X69.568 Y48.035 E62.63299
G1 X69.915 Y47.372 E62.67033
G1 X70.33 Y46.749 E62.70767
G0 F7500 X70.727 Y46.888
G1 F1500 X71.203 Y46.34 E62.74389
G1 X71.737 Y45.847 E62.78015
G1 X72.322 Y45.417 E62.81637
G1 X72.951 Y45.053 E62.85262
G1 X73.616 Y44.76 E62.88888
G1 X74.309 Y44.542 E62.92512
G1 X75.021 Y44.402 E62.96133
G1 X75.938 Y44.338 E63.00719
G1 X144.062 Y44.338 E66.40591
G1 X144.787 Y44.378 E66.44213
G1 X145.504 Y44.497 E66.47839
G1 X146.203 Y44.695 E66.51464
G1 X146.876 Y44.968 E66.55087
G1 X147.515 Y45.313 E66.5871
G1 X148.112 Y45.727 E66.62335
G1 X148.66 Y46.203 E66.65956
G1 X149.153 Y46.737 E66.69582
G1 X149.583 Y47.322 E66.73204
G1 X149.947 Y47.951 E66.7683
G1 X150.24 Y48.616 E66.80455
G1 X150.458 Y49.309 E66.8408
G1 X150.598 Y50.021 E66.877
G1 X150.662 Y50.938 E66.92286
G1 X150.662 Y169.062 E72.81609
G1 X150.622 Y169.787 E72.85231
G1 X150.503 Y170.504 E72.88857
G1 X150.305 Y171.203 E72.92482
G1 X150.032 Y171.876 E72.96105
G1 X149.687 Y172.515 E72.99728
G1 X149.273 Y173.112 E73.03353
G1 X148.797 Y173.66 E73.06974
G1 X148.263 Y174.153 E73.106
G1 X147.678 Y174.583 E73.14222
G1 X147.049 Y174.947 E73.17848
G1 X146.384 Y175.24 E73.21473
G1 X145.691 Y175.458 E73.25098
G1 X144.979 Y175.598 E73.28718
G1 X144.062 Y175.662 E73.33304
G1 X75.938 Y175.662 E76.73176
G1 X75.213 Y175.622 E76.76799
G1 X74.496 Y175.503 E76.80425
G1 X73.797 Y175.305 E76.84049
G1 X73.124 Y175.032 E76.87673
G1 X72.485 Y174.687 E76.91296
G1 X71.888 Y174.273 E76.9492
G1 X71.34 Y173.797 E76.98541
G1 X70.847 Y173.263 E77.02167
G1 X70.417 Y172.678 E77.0579
G1 X70.053 Y172.049 E77.09415
G1 X69.76 Y171.384 E77.13041
G1 X69.542 Y170.691 E77.16665
G1 X69.402 Y169.979 E77.20285
G1 X69.338 Y169.062 E77.24871
G1 X69.338 Y50.938 E83.14194
G1 X69.378 Y50.213 E83.17817
G1 X69.497 Y49.496 E83.21443
G1 X69.695 Y48.797 E83.25068
G1 X69.968 Y48.124 E83.28691
G1 X70.313 Y47.485 E83.32314
G1 X70.727 Y46.888 E83.35938
G0 F7500 X70.712 Y47.603
G1 F1500 X71.123 Y47.032 E83.39448
G1 X71.597 Y46.511 E83.42962
G1 X72.127 Y46.047 E83.46477
G1 X72.706 Y45.647 E83.49988
G1 X73.327 Y45.315 E83.53501
G1 X73.981 Y45.055 E83.57012
G1 X74.661 Y44.871 E83.60527
G1 X75.357 Y44.765 E83.64039
G1 X75.938 Y44.738 E83.66941
G1 X144.062 Y44.738 E87.06813
G1 X144.765 Y44.778 E87.10326
G1 X145.459 Y44.897 E87.13839
G1 X146.134 Y45.095 E87.17348
G1 X146.783 Y45.367 E87.20859
G1 X147.397 Y45.712 E87.24372
G1 X147.968 Y46.123 E87.27882
G1 X148.489 Y46.597 E87.31396
G1 X148.953 Y47.127 E87.34911
G1 X149.353 Y47.706 E87.38422
G1 X149.685 Y48.327 E87.41935
G1 X149.945 Y48.981 E87.45446
G1 X150.129 Y49.661 E87.48961
G1 X150.235 Y50.357 E87.52473
G1 X150.262 Y50.938 E87.55375
G1 X150.262 Y169.062 E93.44698
G1 X150.222 Y169.765 E93.48211
G1 X150.103 Y170.459 E93.51724
G1 X149.905 Y171.134 E93.55233
G1 X149.633 Y171.783 E93.58744
G1 X149.288 Y172.397 E93.62258
G1 X148.877 Y172.968 E93.65768
G1 X148.403 Y173.489 E93.69282
G1 X147.873 Y173.953 E93.72796
G1 X147.294 Y174.353 E93.76307
G1 X146.673 Y174.685 E93.7982
G1 X146.019 Y174.945 E93.83331
G1 X145.339 Y175.129 E93.86846
G1 X144.643 Y175.235 E93.90358
G1 X144.062 Y175.262 E93.9326
G1 X75.938 Y175.262 E97.33132
G1 X75.235 Y175.222 E97.36645
G1 X74.541 Y175.103 E97.40158
G1 X73.866 Y174.905 E97.43667
G1 X73.217 Y174.633 E97.47178
G1 X72.603 Y174.288 E97.50692
G1 X72.032 Y173.877 E97.54202
G1 X71.511 Y173.403 E97.57716
G1 X71.047 Y172.873 E97.6123
G1 X70.647 Y172.294 E97.64741
G1 X70.315 Y171.673 E97.68254
G1 X70.055 Y171.019 E97.71765
G1 X69.871 Y170.339 E97.7528
G1 X69.765 Y169.643 E97.78792
G1 X69.738 Y169.062 E97.81694
G1 X69.738 Y50.938 E103.71017
G1 X69.778 Y50.235 E103.7453
G1 X69.897 Y49.541 E103.78043
G1 X70.095 Y48.866 E103.81552
G1 X70.367 Y48.217 E103.85063
G1 X70.712 Y47.603 E103.88577
G0 F7500 X71.11 Y47.724
G1 F1500 X71.52 Y47.18 E103.91975
G1 X71.991 Y46.689 E103.9537
G1 X72.516 Y46.255 E103.98768
G1 X73.088 Y45.886 E104.02164
G1 X73.7 Y45.587 E104.05562
G1 X74.342 Y45.362 E104.08956
G1 X75.007 Y45.213 E104.12356
G1 X75.938 Y45.138 E104.17016
G1 X144.062 Y45.138 E107.56888
G1 X144.742 Y45.178 E107.60287
G1 X145.412 Y45.297 E107.63681
G1 X146.064 Y45.494 E107.6708
G1 X146.688 Y45.766 E107.70476
G1 X147.276 Y46.11 E107.73874
G1 X147.82 Y46.52 E107.77273
G1 X148.311 Y46.991 E107.80667
G1 X148.745 Y47.516 E107.84066
G1 X149.114 Y48.088 E107.87462
G1 X149.413 Y48.7 E107.9086
G1 X149.638 Y49.342 E107.94254
G1 X149.787 Y50.007 E107.97654
G1 X149.862 Y50.938 E108.02314
G1 X149.862 Y169.062 E113.91637
G1 X149.822 Y169.742 E113.95035
G1 X149.703 Y170.412 E113.9843
G1 X149.506 Y171.064 E114.01828
G1 X149.234 Y171.688 E114.05224
G1 X148.89 Y172.276 E114.08623
G1 X148.48 Y172.82 E114.12021
G1 X148.009 Y173.311 E114.15416
G1 X147.484 Y173.745 E114.18814
G1 X146.912 Y174.114 E114.2221
G1 X146.3 Y174.413 E114.25608
G1 X145.658 Y174.638 E114.29002
G1 X144.993 Y174.787 E114.32402
G1 X144.062 Y174.862 E114.37062
G1 X75.938 Y174.862 E117.76934
G1 X75.258 Y174.822 E117.80332
G1 X74.588 Y174.703 E117.83727
G1 X73.936 Y174.506 E117.87125
G1 X73.312 Y174.234 E117.90521
G1 X72.724 Y173.89 E117.9392
G1 X72.18 Y173.48 E117.97319
G1 X71.689 Y173.009 E118.00713
G1 X71.255 Y172.484 E118.04111
G1 X70.886 Y171.912 E118.07507
G1 X70.587 Y171.3 E118.10906
G1 X70.362 Y170.658 E118.143
G1 X70.213 Y169.993 E118.177
G1 X70.138 Y169.062 E118.22359
G1 X70.138 Y50.938 E124.11682
G1 X70.178 Y50.258 E124.15081
G1 X70.297 Y49.588 E124.18476
G1 X70.494 Y48.936 E124.21874
G1 X70.766 Y48.312 E124.2527
G1 X71.11 Y47.724 E124.28669
G0 F7500 X71.508 Y47.85
G1 F1500 X71.916 Y47.335 E124.31947
G1 X72.383 Y46.873 E124.35224
G1 X72.903 Y46.472 E124.385
G1 X73.467 Y46.136 E124.41775
G1 X74.069 Y45.872 E124.45055
G1 X74.698 Y45.682 E124.48333
G1 X75.345 Y45.571 E124.51608
G1 X75.938 Y45.538 E124.54571
G1 X144.062 Y45.538 E127.94443
G1 X144.718 Y45.578 E127.97722
G1 X145.364 Y45.697 E128.00999
G1 X145.991 Y45.894 E128.04278
G1 X146.589 Y46.166 E128.07556
G1 X147.15 Y46.508 E128.10833
G1 X147.665 Y46.916 E128.14111
G1 X148.127 Y47.383 E128.17389
G1 X148.528 Y47.903 E128.20665
G1 X148.864 Y48.467 E128.2394
G1 X149.128 Y49.069 E128.2722
G1 X149.318 Y49.698 E128.30498
G1 X149.429 Y50.345 E128.33773
G1 X149.462 Y50.938 E128.36736
G1 X149.462 Y169.062 E134.26059
G1 X149.422 Y169.718 E134.29338
G1 X149.303 Y170.364 E134.32615
G1 X149.106 Y170.991 E134.35894
G1 X148.834 Y171.589 E134.39171
G1 X148.492 Y172.15 E134.42449
G1 X148.084 Y172.665 E134.45727
G1 X147.617 Y173.127 E134.49005
G1 X147.097 Y173.528 E134.52281
G1 X146.533 Y173.864 E134.55556
G1 X145.931 Y174.128 E134.58835
G1 X145.302 Y174.318 E134.62114
G1 X144.655 Y174.429 E134.65389
G1 X144.062 Y174.462 E134.68352
G1 X75.938 Y174.462 E138.08224
G1 X75.282 Y174.422 E138.11503
G1 X74.636 Y174.303 E138.1478
G1 X74.009 Y174.106 E138.18059
G1 X73.411 Y173.834 E138.21336
G1 X72.85 Y173.492 E138.24614
G1 X72.335 Y173.084 E138.27892
G1 X71.873 Y172.617 E138.31169
G1 X71.472 Y172.097 E138.34445
G1 X71.136 Y171.533 E138.37721
G1 X70.872 Y170.931 E138.41
G1 X70.682 Y170.302 E138.44278
G1 X70.571 Y169.655 E138.47553
G1 X70.538 Y169.062 E138.50516
G1 X70.538 Y50.938 E144.3984
G1 X70.578 Y50.282 E144.43118
G1 X70.697 Y49.636 E144.46396
G1 X70.894 Y49.009 E144.49674
G1 X71.166 Y48.411 E144.52952
G1 X71.508 Y47.85 E144.5623
G0 F7500 X71.905 Y47.982
G1 F1500 X72.311 Y47.497 E144.59385
G1 X72.774 Y47.067 E144.62538
G1 X73.288 Y46.698 E144.65695
G1 X73.844 Y46.398 E144.68847
G1 X74.433 Y46.17 E144.71998
G1 X75.047 Y46.018 E144.75153
G1 X75.938 Y45.938 E144.79616
G1 X144.062 Y45.938 E148.19488
G1 X144.693 Y45.978 E148.22643
G1 X145.314 Y46.097 E148.25797
G1 X145.914 Y46.294 E148.28948
G1 X146.486 Y46.565 E148.32106
G1 X147.018 Y46.905 E148.35256
G1 X147.503 Y47.311 E148.38411
G1 X147.933 Y47.774 E148.41564
G1 X148.302 Y48.288 E148.4472
G1 X148.602 Y48.844 E148.47872
G1 X148.83 Y49.433 E148.51023
G1 X148.982 Y50.047 E148.54179
G1 X149.062 Y50.938 E148.58642
G1 X149.062 Y169.062 E154.47965
G1 X149.022 Y169.693 E154.5112
G1 X148.903 Y170.314 E154.54274
G1 X148.706 Y170.914 E154.57425
G1 X148.435 Y171.486 E154.60583
G1 X148.095 Y172.018 E154.63733
G1 X147.689 Y172.503 E154.66888
G1 X147.226 Y172.933 E154.70041
G1 X146.712 Y173.302 E154.73197
G1 X146.156 Y173.602 E154.76349
G1 X145.567 Y173.83 E154.795
G1 X144.953 Y173.982 E154.82656
G1 X144.062 Y174.062 E154.87119
G1 X75.938 Y174.062 E158.26991
G1 X75.307 Y174.022 E158.30145
G1 X74.686 Y173.903 E158.333
G1 X74.086 Y173.706 E158.36451
G1 X73.514 Y173.435 E158.39608
G1 X72.982 Y173.095 E158.42758
G1 X72.497 Y172.689 E158.45914
G1 X72.067 Y172.226 E158.49066
G1 X71.698 Y171.712 E158.52223
G1 X71.398 Y171.156 E158.55375
G1 X71.17 Y170.567 E158.58526
G1 X71.018 Y169.953 E158.61682
G1 X70.938 Y169.062 E158.66145
G1 X70.938 Y50.938 E164.55468
G1 X70.978 Y50.307 E164.58622
G1 X71.097 Y49.686 E164.61777
G1 X71.294 Y49.086 E164.64927
G1 X71.565 Y48.514 E164.68085
G1 X71.905 Y47.982 E164.71235
G0 F7500 X72.303 Y48.119
G1 F1500 X72.705 Y47.666 E164.74257
G1 X73.163 Y47.269 E164.77281
G1 X73.67 Y46.936 E164.80307
G1 X74.216 Y46.672 E164.83333
G1 X74.792 Y46.483 E164.86357
G1 X75.388 Y46.371 E164.89383
G1 X75.938 Y46.338 E164.92131
G1 X144.062 Y46.338 E168.32003
G1 X144.667 Y46.378 E168.35028
G1 X145.261 Y46.497 E168.38051
G1 X145.835 Y46.693 E168.41077
G1 X146.378 Y46.964 E168.44105
G1 X146.881 Y47.303 E168.47131
G1 X147.334 Y47.705 E168.50152
G1 X147.731 Y48.163 E168.53176
G1 X148.064 Y48.67 E168.56202
G1 X148.328 Y49.216 E168.59228
G1 X148.517 Y49.792 E168.62253
G1 X148.629 Y50.388 E168.65278
G1 X148.662 Y50.938 E168.68027
G1 X148.662 Y169.062 E174.5735
G1 X148.622 Y169.667 E174.60375
G1 X148.503 Y170.261 E174.63397
G1 X148.307 Y170.835 E174.66423
G1 X148.036 Y171.378 E174.69451
G1 X147.697 Y171.881 E174.72477
G1 X147.295 Y172.334 E174.75499
G1 X146.837 Y172.731 E174.78523
G1 X146.33 Y173.064 E174.81549
