;FLAVOR:Marlin
;TIME:1992
;Filament used: 1.86861m
;Layer height: 0.3
;MINX:70.692
;MINY:93.18
;MINZ:0.3
;MAXX:149.308
;MAXY:126.812
;MAXZ:14.4
;Generated with Cura_SteamEngine 4.9.0
M140 S70
M105
M190 S70
M104 S200
M105
M109 S200
M82 ;absolute extrusion mode
G28 ;Home
G1 Z15.0 F2000 ;Move the platform
G92 E0
G92 E0
G1 F1500 E-6.5
;LAYER_COUNT:48
;LAYER:0
M107
M204 S1000
G0 F7500 X74.007 Y94.849 Z0.3
;TYPE:SKIRT
G1 F1500 E0
G1 X74.661 Y94.406 E0.03941
G1 X75.356 Y94.031 E0.07881
G1 X76.064 Y93.737 E0.11705
G1 X76.328 Y93.642 E0.13105
G1 X77.084 Y93.412 E0.17048
G1 X77.859 Y93.26 E0.20988
G1 X78.645 Y93.188 E0.24926
G1 X79.096 Y93.192 E0.27176
G1 X140.794 Y93.192 E3.34988
G1 X141.031 Y93.18 E3.36172
G1 X141.82 Y93.22 E3.40114
G1 X142.6 Y93.34 E3.44051
G1 X143.677 Y93.643 E3.49633
G1 X143.943 Y93.739 E3.51043
G1 X144.671 Y94.045 E3.54983
G1 X145.365 Y94.422 E3.58924
G1 X146.017 Y94.868 E3.62865
G1 X146.62 Y95.377 E3.66801
G1 X147.161 Y95.935 E3.70679
G1 X147.324 Y96.121 E3.71913
G1 X147.814 Y96.741 E3.75855
G1 X148.239 Y97.407 E3.79797
G1 X148.594 Y98.112 E3.83735
G1 X148.876 Y98.849 E3.87672
G1 X149.093 Y99.665 E3.91884
G1 X149.143 Y99.904 E3.93103
G1 X149.265 Y100.684 E3.97041
G1 X149.308 Y101.501 E4.01123
G1 X149.308 Y118.501 E4.85936
G1 X149.268 Y119.29 E4.89878
G1 X149.136 Y120.129 E4.94115
G1 X149.085 Y120.368 E4.95334
G1 X148.882 Y121.131 E4.99273
G1 X148.602 Y121.869 E5.03211
G1 X148.249 Y122.576 E5.07154
G1 X147.826 Y123.243 E5.11094
G1 X147.311 Y123.894 E5.15235
G1 X147.149 Y124.078 E5.16459
G1 X146.598 Y124.644 E5.20399
G1 X145.993 Y125.151 E5.24337
G1 X145.339 Y125.594 E5.28278
G1 X144.644 Y125.969 E5.32218
G1 X143.936 Y126.263 E5.36043
G1 X143.672 Y126.358 E5.37443
G1 X142.916 Y126.588 E5.41385
G1 X142.141 Y126.74 E5.45325
G1 X141.355 Y126.812 E5.49263
G1 X140.904 Y126.808 E5.51513
G1 X78.999 Y126.808 E8.60358
G1 X78.21 Y126.768 E8.643
G1 X77.43 Y126.649 E8.68236
G1 X76.856 Y126.508 E8.71185
G1 X76.562 Y126.424 E8.72711
G1 X75.815 Y126.169 E8.76649
G1 X75.097 Y125.839 E8.80591
G1 X74.416 Y125.439 E8.84531
G1 X73.78 Y124.972 E8.88468
G1 X73.193 Y124.443 E8.9241
G1 X72.839 Y124.065 E8.94994
G1 X72.676 Y123.879 E8.96228
G1 X72.186 Y123.259 E9.0017
G1 X71.761 Y122.593 E9.04112
G1 X71.406 Y121.888 E9.0805
G1 X71.124 Y121.151 E9.11987
G1 X70.907 Y120.335 E9.16199
G1 X70.857 Y120.096 E9.17417
G1 X70.735 Y119.316 E9.21356
G1 X70.692 Y118.499 E9.25438
G1 X70.692 Y101.499 E10.10251
G1 X70.732 Y100.71 E10.14193
G1 X70.864 Y99.871 E10.1843
G1 X70.915 Y99.632 E10.19649
G1 X71.118 Y98.869 E10.23588
G1 X71.398 Y98.131 E10.27526
G1 X71.751 Y97.424 E10.31469
G1 X72.174 Y96.757 E10.35409
G1 X72.689 Y96.106 E10.3955
G1 X72.851 Y95.922 E10.40773
G1 X73.402 Y95.356 E10.44714
G1 X74.007 Y94.849 E10.48652
G0 F7500 X74.28 Y95.145
G1 F1500 X74.92 Y94.717 E10.52493
G1 X75.6 Y94.359 E10.56327
G1 X76.199 Y94.113 E10.59558
G1 X76.463 Y94.018 E10.60958
G1 X77.2 Y93.796 E10.64798
G1 X77.955 Y93.651 E10.68633
G1 X78.721 Y93.585 E10.72469
G1 X79.105 Y93.592 E10.74385
G1 X140.823 Y93.592 E13.82298
G1 X141.111 Y93.58 E13.83736
G1 X141.878 Y93.629 E13.8757
G1 X142.637 Y93.757 E13.9141
G1 X143.541 Y94.019 E13.96106
G1 X143.807 Y94.115 E13.97517
G1 X144.516 Y94.414 E14.01356
G1 X145.19 Y94.784 E14.05192
G1 X145.822 Y95.222 E14.09028
G1 X146.405 Y95.724 E14.12866
G1 X146.86 Y96.199 E14.16148
G1 X147.023 Y96.385 E14.17382
G1 X147.5 Y96.989 E14.21221
G1 X147.91 Y97.639 E14.25055
G1 X148.252 Y98.328 E14.28893
G1 X148.519 Y99.049 E14.32729
G1 X148.701 Y99.747 E14.36328
G1 X148.751 Y99.986 E14.37546
G1 X148.869 Y100.746 E14.41383
G1 X148.908 Y101.501 E14.45155
G1 X148.908 Y118.501 E15.29968
G1 X148.868 Y119.269 E15.33805
G1 X148.745 Y120.045 E15.37725
G1 X148.694 Y120.284 E15.38944
G1 X148.495 Y121.027 E15.42781
G1 X148.219 Y121.745 E15.46619
G1 X147.871 Y122.431 E15.50457
G1 X147.453 Y123.077 E15.54295
G1 X147.011 Y123.63 E15.57827
G1 X146.849 Y123.814 E15.5905
G1 X146.312 Y124.364 E15.62885
G1 X145.72 Y124.855 E15.66722
G1 X145.08 Y125.283 E15.70564
G1 X144.4 Y125.641 E15.74398
G1 X143.801 Y125.887 E15.77628
G1 X143.537 Y125.982 E15.79028
G1 X142.8 Y126.204 E15.82868
G1 X142.045 Y126.349 E15.86704
G1 X141.279 Y126.415 E15.90539
G1 X140.894 Y126.408 E15.92461
G1 X78.999 Y126.408 E19.01256
G1 X78.231 Y126.368 E19.05093
G1 X77.471 Y126.249 E19.08931
G1 X76.966 Y126.123 E19.11527
G1 X76.672 Y126.039 E19.13053
G1 X75.944 Y125.79 E19.16891
G1 X75.247 Y125.466 E19.20726
G1 X74.586 Y125.072 E19.24565
G1 X73.97 Y124.611 E19.28404
G1 X73.406 Y124.089 E19.32238
G1 X73.14 Y123.801 E19.34194
G1 X72.977 Y123.615 E19.35427
G1 X72.5 Y123.011 E19.39267
G1 X72.09 Y122.361 E19.43101
G1 X71.748 Y121.672 E19.46939
G1 X71.481 Y120.951 E19.50775
G1 X71.299 Y120.253 E19.54373
G1 X71.249 Y120.014 E19.55592
G1 X71.131 Y119.254 E19.59429
G1 X71.092 Y118.499 E19.632
G1 X71.092 Y101.499 E20.48014
G1 X71.132 Y100.731 E20.51851
G1 X71.255 Y99.955 E20.5577
G1 X71.306 Y99.716 E20.5699
G1 X71.505 Y98.973 E20.60827
G1 X71.781 Y98.255 E20.64665
G1 X72.129 Y97.569 E20.68502
G1 X72.547 Y96.923 E20.72341
G1 X72.989 Y96.37 E20.75873
G1 X73.151 Y96.186 E20.77096
G1 X73.688 Y95.636 E20.80931
G1 X74.28 Y95.145 E20.84768
G0 F7500 X74.552 Y95.441
G1 F1500 X75.177 Y95.03 E20.885
G1 X75.843 Y94.688 E20.92235
G1 X76.335 Y94.489 E20.94883
G1 X76.599 Y94.394 E20.96283
G1 X77.315 Y94.179 E21.00013
G1 X78.051 Y94.042 E21.03748
G1 X78.796 Y93.983 E21.07476
G1 X79.102 Y93.992 E21.09003
G1 X140.863 Y93.992 E24.1713
G1 X141.188 Y93.982 E24.18752
G1 X141.934 Y94.039 E24.22485
G1 X142.67 Y94.175 E24.26219
G1 X143.405 Y94.396 E24.30048
G1 X143.671 Y94.492 E24.31459
G1 X144.36 Y94.783 E24.35191
G1 X145.014 Y95.146 E24.38922
G1 X145.626 Y95.577 E24.42657
G1 X146.188 Y96.07 E24.46387
G1 X146.56 Y96.462 E24.49083
G1 X146.723 Y96.648 E24.50317
G1 X147.185 Y97.237 E24.54051
G1 X147.582 Y97.871 E24.57783
G1 X147.909 Y98.544 E24.61516
G1 X148.162 Y99.247 E24.65244
G1 X148.31 Y99.829 E24.6824
G1 X148.36 Y100.068 E24.69458
G1 X148.474 Y100.807 E24.73188
G1 X148.508 Y101.501 E24.76655
G1 X148.508 Y118.501 E25.61468
G1 X148.468 Y119.248 E25.652
G1 X148.354 Y119.962 E25.68808
G1 X148.303 Y120.201 E25.70027
G1 X148.108 Y120.923 E25.73758
G1 X147.837 Y121.62 E25.77489
G1 X147.493 Y122.285 E25.81224
G1 X147.08 Y122.909 E25.84958
G1 X146.711 Y123.366 E25.87888
G1 X146.549 Y123.55 E25.89111
G1 X146.025 Y124.084 E25.92844
G1 X145.448 Y124.559 E25.96572
G1 X144.823 Y124.97 E26.00304
G1 X144.157 Y125.312 E26.04039
G1 X143.665 Y125.511 E26.06687
G1 X143.401 Y125.606 E26.08087
G1 X142.685 Y125.821 E26.11817
G1 X141.949 Y125.958 E26.15552
G1 X141.204 Y126.017 E26.1928
G1 X140.898 Y126.008 E26.20807
G1 X78.999 Y126.008 E29.29623
G1 X78.252 Y125.968 E29.33355
G1 X77.514 Y125.849 E29.37084
G1 X77.076 Y125.739 E29.39337
G1 X76.782 Y125.655 E29.40863
G1 X76.075 Y125.411 E29.44594
G1 X75.397 Y125.093 E29.4833
G1 X74.758 Y124.705 E29.5206
G1 X74.164 Y124.251 E29.5579
G1 X73.44 Y123.538 E29.60859
G1 X73.277 Y123.352 E29.62093
G1 X72.815 Y122.763 E29.65828
G1 X72.418 Y122.129 E29.6956
G1 X72.091 Y121.456 E29.73293
G1 X71.838 Y120.753 E29.7702
G1 X71.69 Y120.171 E29.80016
G1 X71.64 Y119.932 E29.81235
G1 X71.526 Y119.193 E29.84965
G1 X71.492 Y118.499 E29.88432
G1 X71.492 Y101.499 E30.73245
G1 X71.532 Y100.752 E30.76977
G1 X71.646 Y100.038 E30.80584
G1 X71.697 Y99.799 E30.81804
G1 X71.892 Y99.077 E30.85535
G1 X72.163 Y98.38 E30.89266
G1 X72.507 Y97.715 E30.93001
G1 X72.92 Y97.091 E30.96734
G1 X73.289 Y96.634 E30.99665
G1 X73.451 Y96.45 E31.00888
G1 X73.975 Y95.916 E31.0462
G1 X74.552 Y95.441 E31.08349
G0 F7500 X74.824 Y95.738
G1 F1500 X75.434 Y95.344 E31.11972
G1 X76.084 Y95.019 E31.15598
G1 X76.47 Y94.866 E31.17669
G1 X76.734 Y94.771 E31.19069
G1 X77.43 Y94.563 E31.22693
G1 X78.145 Y94.433 E31.26319
G1 X78.869 Y94.382 E31.2994
G1 X79.119 Y94.392 E31.31188
G1 X140.849 Y94.392 E34.3916
G1 X141.264 Y94.384 E34.41231
G1 X141.987 Y94.45 E34.44853
G1 X142.699 Y94.595 E34.48478
G1 X143.27 Y94.772 E34.5146
G1 X143.536 Y94.868 E34.52871
G1 X144.204 Y95.152 E34.56493
G1 X144.838 Y95.507 E34.60118
G1 X145.428 Y95.93 E34.6374
G1 X145.968 Y96.416 E34.67364
G1 X146.259 Y96.726 E34.69485
G1 X146.422 Y96.912 E34.70719
G1 X146.87 Y97.484 E34.74344
G1 X147.252 Y98.101 E34.77965
G1 X147.564 Y98.757 E34.81589
G1 X147.803 Y99.443 E34.85213
G1 X147.918 Y99.911 E34.87617
G1 X147.968 Y100.15 E34.88835
G1 X148.078 Y100.868 E34.92459
G1 X148.108 Y101.501 E34.95621
G1 X148.108 Y118.501 E35.80434
G1 X148.068 Y119.226 E35.84057
G1 X147.963 Y119.878 E35.87352
G1 X147.912 Y120.117 E35.88571
G1 X147.721 Y120.818 E35.92196
G1 X147.455 Y121.494 E35.9582
G1 X147.116 Y122.137 E35.99446
G1 X146.708 Y122.738 E36.0307
G1 X146.411 Y123.101 E36.0541
G1 X146.249 Y123.285 E36.06633
G1 X145.739 Y123.803 E36.1026
G1 X145.176 Y124.262 E36.13884
G1 X144.566 Y124.656 E36.17507
G1 X143.916 Y124.981 E36.21133
G1 X143.53 Y125.134 E36.23204
G1 X143.266 Y125.229 E36.24604
G1 X142.57 Y125.437 E36.28228
G1 X141.855 Y125.567 E36.31854
G1 X141.131 Y125.618 E36.35475
G1 X140.881 Y125.608 E36.36723
G1 X78.999 Y125.608 E39.45453
G1 X78.274 Y125.568 E39.49076
G1 X77.557 Y125.449 E39.52702
G1 X77.186 Y125.354 E39.54613
G1 X76.892 Y125.27 E39.56138
G1 X76.205 Y125.032 E39.59765
G1 X75.549 Y124.721 E39.63387
G1 X74.931 Y124.339 E39.67012
G1 X74.359 Y123.891 E39.70637
G1 X73.741 Y123.274 E39.74994
G1 X73.578 Y123.088 E39.76228
G1 X73.13 Y122.516 E39.79852
G1 X72.748 Y121.899 E39.83473
G1 X72.436 Y121.243 E39.87097
G1 X72.197 Y120.557 E39.90721
G1 X72.082 Y120.089 E39.93126
G1 X72.032 Y119.85 E39.94344
G1 X71.922 Y119.132 E39.97968
G1 X71.892 Y118.499 E40.01129
G1 X71.892 Y101.499 E40.85943
G1 X71.932 Y100.774 E40.89565
G1 X72.037 Y100.122 E40.9286
G1 X72.088 Y99.883 E40.94079
G1 X72.279 Y99.182 E40.97704
G1 X72.545 Y98.506 E41.01328
G1 X72.884 Y97.863 E41.04955
G1 X73.292 Y97.262 E41.08579
G1 X73.589 Y96.899 E41.10919
G1 X73.751 Y96.715 E41.12142
G1 X74.261 Y96.197 E41.15768
G1 X74.824 Y95.738 E41.19392
G0 F7500 X75.094 Y96.036
G1 F1500 X75.689 Y95.659 E41.22907
G1 X76.606 Y95.242 E41.27932
G1 X76.87 Y95.147 E41.29332
G1 X77.545 Y94.947 E41.32844
G1 X78.238 Y94.824 E41.36356
G1 X78.94 Y94.781 E41.39865
G1 X79.149 Y94.792 E41.40909
G1 X140.773 Y94.792 E44.48352
G1 X141.336 Y94.788 E44.51161
G1 X142.036 Y94.862 E44.54673
G1 X142.723 Y95.016 E44.58185
G1 X143.134 Y95.148 E44.60339
G1 X143.4 Y95.244 E44.6175
G1 X144.047 Y95.52 E44.65259
G1 X144.659 Y95.868 E44.68772
G1 X145.228 Y96.283 E44.72285
G1 X145.958 Y96.99 E44.77355
G1 X146.121 Y97.176 E44.78589
G1 X146.554 Y97.731 E44.82101
G1 X146.922 Y98.331 E44.85613
G1 X147.219 Y98.969 E44.89124
G1 X147.441 Y99.637 E44.92635
G1 X147.527 Y99.992 E44.94458
G1 X147.577 Y100.231 E44.95676
G1 X147.681 Y100.928 E44.99192
G1 X147.708 Y101.501 E45.02054
G1 X147.708 Y118.501 E45.86867
G1 X147.668 Y119.204 E45.9038
G1 X147.571 Y119.795 E45.93368
G1 X147.52 Y120.034 E45.94587
G1 X147.335 Y120.713 E45.98098
G1 X147.073 Y121.367 E46.01613
G1 X146.739 Y121.986 E46.05122
G1 X146.337 Y122.564 E46.08635
G1 X146.11 Y122.837 E46.10406
G1 X145.948 Y123.021 E46.11629
G1 X145.454 Y123.522 E46.15139
G1 X144.906 Y123.964 E46.18652
G1 X144.311 Y124.341 E46.22166
G1 X143.394 Y124.758 E46.27192
G1 X143.13 Y124.853 E46.28591
G1 X142.455 Y125.053 E46.32104
G1 X141.762 Y125.176 E46.35615
G1 X141.06 Y125.219 E46.39124
G1 X140.851 Y125.208 E46.40168
G1 X78.999 Y125.208 E49.48749
G1 X78.296 Y125.168 E49.52262
G1 X77.296 Y124.969 E49.57349
G1 X77.002 Y124.885 E49.58874
G1 X76.337 Y124.654 E49.62387
G1 X75.703 Y124.349 E49.65897
G1 X75.107 Y123.973 E49.69412
G1 X74.558 Y123.533 E49.72922
G1 X74.042 Y123.01 E49.76588
G1 X73.879 Y122.824 E49.77822
G1 X73.446 Y122.269 E49.81334
G1 X73.078 Y121.669 E49.84845
G1 X72.781 Y121.031 E49.88356
G1 X72.559 Y120.363 E49.91868
G1 X72.473 Y120.008 E49.9369
G1 X72.423 Y119.769 E49.94909
G1 X72.319 Y119.072 E49.98424
G1 X72.292 Y118.499 E50.01286
G1 X72.292 Y101.499 E50.861
G1 X72.332 Y100.796 E50.89613
G1 X72.429 Y100.205 E50.92601
G1 X72.48 Y99.966 E50.9382
G1 X72.665 Y99.287 E50.97331
G1 X72.927 Y98.633 E51.00846
G1 X73.261 Y98.014 E51.04355
G1 X73.663 Y97.436 E51.07867
G1 X73.89 Y97.163 E51.09639
G1 X74.052 Y96.979 E51.10862
G1 X74.546 Y96.478 E51.14372
G1 X75.094 Y96.036 E51.17884
G0 F7500 X75.363 Y96.335
G1 F1500 X75.942 Y95.976 E51.21283
G1 X76.741 Y95.619 E51.25649
G1 X77.005 Y95.524 E51.27049
G1 X77.658 Y95.331 E51.30446
G1 X78.329 Y95.216 E51.33843
G1 X79.009 Y95.181 E51.3724
G1 X79.175 Y95.192 E51.3807
G1 X140.689 Y95.192 E54.44964
G1 X140.725 Y95.188 E54.45145
G1 X141.405 Y95.192 E54.48538
G1 X142.081 Y95.276 E54.51936
G1 X142.998 Y95.524 E54.56675
G1 X143.264 Y95.62 E54.58086
G1 X143.89 Y95.889 E54.61485
G1 X144.48 Y96.229 E54.64883
G1 X145.026 Y96.635 E54.68277
G1 X145.657 Y97.253 E54.72684
G1 X145.82 Y97.439 E54.73918
G1 X146.238 Y97.977 E54.77317
G1 X146.59 Y98.56 E54.80714
G1 X146.871 Y99.18 E54.8411
G1 X147.135 Y100.074 E54.88761
G1 X147.185 Y100.313 E54.89979
G1 X147.285 Y100.987 E54.93379
G1 X147.308 Y101.501 E54.95945
G1 X147.308 Y118.501 E55.80759
G1 X147.268 Y119.181 E55.84157
G1 X147.18 Y119.711 E55.86838
G1 X147.129 Y119.95 E55.88057
G1 X146.948 Y120.607 E55.91457
G1 X146.692 Y121.237 E55.94849
G1 X146.363 Y121.834 E55.9825
G1 X145.81 Y122.573 E56.02855
G1 X145.648 Y122.757 E56.04078
G1 X145.169 Y123.24 E56.07472
G1 X144.637 Y123.665 E56.10869
G1 X144.058 Y124.024 E56.14268
G1 X143.259 Y124.381 E56.18634
G1 X142.995 Y124.476 E56.20034
G1 X142.342 Y124.669 E56.23431
G1 X141.671 Y124.784 E56.26827
G1 X140.991 Y124.819 E56.30224
G1 X140.825 Y124.808 E56.31054
G1 X78.999 Y124.808 E59.39505
G1 X78.319 Y124.768 E59.42904
G1 X77.406 Y124.585 E59.47549
G1 X77.112 Y124.501 E59.49075
G1 X76.469 Y124.276 E59.52473
G1 X75.857 Y123.977 E59.55872
G1 X75.285 Y123.608 E59.59268
G1 X74.759 Y123.175 E59.62667
G1 X74.343 Y122.747 E59.65644
G1 X74.18 Y122.561 E59.66878
G1 X73.762 Y122.023 E59.70277
G1 X73.41 Y121.44 E59.73675
G1 X73.129 Y120.82 E59.77071
G1 X72.865 Y119.926 E59.81722
G1 X72.815 Y119.687 E59.8294
G1 X72.715 Y119.013 E59.86339
G1 X72.692 Y118.499 E59.88906
G1 X72.692 Y101.499 E60.73719
G1 X72.732 Y100.819 E60.77118
G1 X72.82 Y100.289 E60.79798
G1 X72.871 Y100.05 E60.81017
G1 X73.052 Y99.393 E60.84417
G1 X73.308 Y98.763 E60.8781
G1 X73.637 Y98.166 E60.91211
G1 X74.19 Y97.427 E60.95816
G1 X74.352 Y97.243 E60.97039
G1 X74.831 Y96.76 E61.00432
G1 X75.363 Y96.335 E61.0383
G0 F7500 X75.632 Y96.636
G1 F1500 X76.194 Y96.295 E61.07109
G1 X76.877 Y95.995 E61.10831
G1 X77.141 Y95.9 E61.12231
G1 X77.771 Y95.716 E61.15505
G1 X78.419 Y95.609 E61.18782
G1 X79.076 Y95.582 E61.22062
G1 X79.2 Y95.592 E61.22683
G1 X140.736 Y95.592 E64.29687
G1 X140.815 Y95.584 E64.30083
G1 X141.472 Y95.598 E64.33362
G1 X142.122 Y95.692 E64.36639
G1 X142.862 Y95.901 E64.40475
G1 X143.128 Y95.997 E64.41886
G1 X143.731 Y96.257 E64.45162
G1 X144.299 Y96.588 E64.48442
G1 X144.821 Y96.986 E64.51717
G1 X145.356 Y97.517 E64.55477
G1 X145.519 Y97.703 E64.56711
G1 X145.921 Y98.222 E64.59986
G1 X146.257 Y98.787 E64.63266
G1 X146.522 Y99.388 E64.66543
G1 X146.744 Y100.156 E64.70531
G1 X146.794 Y100.395 E64.71749
G1 X146.889 Y101.045 E64.75027
G1 X146.908 Y101.501 E64.77304
G1 X146.908 Y118.501 E65.62117
G1 X146.868 Y119.157 E65.65396
G1 X146.789 Y119.628 E65.67779
G1 X146.738 Y119.867 E65.68998
G1 X146.562 Y120.5 E65.72276
G1 X146.311 Y121.107 E65.75553
G1 X145.987 Y121.679 E65.78832
G1 X145.51 Y122.308 E65.82771
G1 X145.348 Y122.492 E65.83994
G1 X144.885 Y122.958 E65.87271
G1 X144.368 Y123.364 E65.90551
G1 X143.806 Y123.705 E65.9383
G1 X143.123 Y124.005 E65.97552
G1 X142.859 Y124.1 E65.98952
G1 X142.229 Y124.284 E66.02226
G1 X141.581 Y124.391 E66.05503
G1 X140.924 Y124.418 E66.08783
G1 X140.8 Y124.408 E66.09404
G1 X78.999 Y124.408 E69.17731
G1 X78.343 Y124.368 E69.21009
G1 X77.516 Y124.2 E69.2522
G1 X77.222 Y124.116 E69.26745
G1 X76.602 Y123.898 E69.30024
G1 X76.014 Y123.605 E69.33301
G1 X75.465 Y123.244 E69.3658
G1 X74.964 Y122.819 E69.39857
G1 X74.644 Y122.483 E69.42172
G1 X74.481 Y122.297 E69.43406
G1 X74.079 Y121.778 E69.46681
G1 X73.743 Y121.213 E69.49961
