;FLAVOR:Marlin
;TIME:5207
;Filament used: 6.17309m
;Layer height: 0.3
;MINX:69.05
;MINY:44.05
;MINZ:0.3
;MAXX:150.95
;MAXY:175.95
;MAXZ:1.8
;Generated with Cura_SteamEngine 4.9.0
M140 S60
M105
M190 S60
M104 S200
M105
M109 S200
M82 ;absolute extrusion mode
G28 ;Home
G1 Z15.0 F2000 ;Move the platform
G92 E0
G92 E0
G1 F1500 E-6.5
;LAYER_COUNT:6
;LAYER:0
M107
M204 S1000
G0 F7500 X70.447 Y47.396 Z0.3
;TYPE:SKIRT
G1 F1500 E0
G1 X70.93 Y46.772 E0.03937
G1 X71.473 Y46.199 E0.07875
G1 X72.072 Y45.684 E0.11816
G1 X72.72 Y45.233 E0.15755
G1 X73.411 Y44.849 E0.19699
G1 X74.136 Y44.537 E0.23637
G1 X74.889 Y44.3 E0.27575
G1 X75.663 Y44.141 E0.31517
G1 X76.448 Y44.06 E0.35455
G1 X76.85 Y44.05 E0.37461
G1 X143.15 Y44.05 E3.68233
G1 X143.939 Y44.09 E3.72174
G1 X144.719 Y44.209 E3.76111
G1 X145.484 Y44.407 E3.80053
G1 X146.224 Y44.681 E3.8399
G1 X146.933 Y45.029 E3.8793
G1 X147.604 Y45.447 E3.91874
G1 X148.228 Y45.93 E3.95811
G1 X148.801 Y46.473 E3.99749
G1 X149.316 Y47.072 E4.03691
G1 X149.767 Y47.72 E4.07629
G1 X150.151 Y48.411 E4.11573
G1 X150.463 Y49.136 E4.15511
G1 X150.7 Y49.889 E4.19449
G1 X150.859 Y50.663 E4.23392
G1 X150.94 Y51.448 E4.27329
G1 X150.95 Y51.85 E4.29335
G1 X150.95 Y168.15 E10.09558
G1 X150.91 Y168.939 E10.13499
G1 X150.791 Y169.719 E10.17436
G1 X150.593 Y170.484 E10.21378
G1 X150.319 Y171.224 E10.25315
G1 X149.971 Y171.933 E10.29255
G1 X149.553 Y172.604 E10.332
G1 X149.07 Y173.228 E10.37136
G1 X148.527 Y173.801 E10.41075
G1 X147.928 Y174.316 E10.45016
G1 X147.28 Y174.767 E10.48955
G1 X146.589 Y175.151 E10.52899
G1 X145.864 Y175.463 E10.56836
G1 X145.111 Y175.7 E10.60775
G1 X144.337 Y175.859 E10.64717
G1 X143.552 Y175.94 E10.68654
G1 X143.15 Y175.95 E10.7066
G1 X76.85 Y175.95 E14.01432
G1 X76.061 Y175.91 E14.05374
G1 X75.281 Y175.791 E14.0931
G1 X74.516 Y175.593 E14.13253
G1 X73.776 Y175.319 E14.17189
G1 X73.067 Y174.971 E14.2113
G1 X72.396 Y174.553 E14.25074
G1 X71.772 Y174.07 E14.29011
G1 X71.199 Y173.527 E14.32949
G1 X70.684 Y172.928 E14.3689
G1 X70.233 Y172.28 E14.40829
G1 X69.849 Y171.589 E14.44773
G1 X69.537 Y170.864 E14.48711
G1 X69.3 Y170.111 E14.52649
G1 X69.141 Y169.337 E14.56591
G1 X69.06 Y168.552 E14.60528
G1 X69.05 Y168.15 E14.62535
G1 X69.05 Y51.85 E20.42758
G1 X69.09 Y51.061 E20.46699
G1 X69.209 Y50.281 E20.50635
G1 X69.407 Y49.516 E20.54578
G1 X69.681 Y48.776 E20.58515
G1 X70.029 Y48.067 E20.62455
G1 X70.447 Y47.396 E20.66399
G0 F7500 X70.844 Y47.527
G1 F1500 X71.325 Y46.927 E20.70236
G1 X71.866 Y46.38 E20.74074
G1 X72.461 Y45.892 E20.77913
G1 X73.103 Y45.469 E20.81749
G1 X73.786 Y45.114 E20.85589
G1 X74.501 Y44.833 E20.89422
G1 X75.243 Y44.627 E20.93264
G1 X76.001 Y44.499 E20.97099
G1 X76.85 Y44.45 E21.01342
G1 X143.15 Y44.45 E24.32114
G1 X143.918 Y44.49 E24.3595
G1 X144.678 Y44.609 E24.39788
G1 X145.421 Y44.807 E24.43624
G1 X146.14 Y45.081 E24.47463
G1 X146.826 Y45.428 E24.51299
G1 X147.473 Y45.844 E24.55136
G1 X148.073 Y46.325 E24.58973
G1 X148.62 Y46.866 E24.62811
G1 X149.108 Y47.461 E24.6665
G1 X149.531 Y48.103 E24.70486
G1 X149.886 Y48.786 E24.74326
G1 X150.167 Y49.501 E24.78159
G1 X150.373 Y50.243 E24.82001
G1 X150.501 Y51.001 E24.85836
G1 X150.55 Y51.85 E24.90079
G1 X150.55 Y168.15 E30.70302
G1 X150.51 Y168.918 E30.74138
G1 X150.391 Y169.678 E30.77976
G1 X150.193 Y170.421 E30.81813
G1 X149.919 Y171.14 E30.85651
G1 X149.572 Y171.826 E30.89487
G1 X149.156 Y172.473 E30.93324
G1 X148.675 Y173.073 E30.97161
G1 X148.134 Y173.62 E31.00999
G1 X147.539 Y174.108 E31.04838
G1 X146.897 Y174.531 E31.08674
G1 X146.214 Y174.886 E31.12514
G1 X145.499 Y175.167 E31.16347
G1 X144.757 Y175.373 E31.20189
G1 X143.999 Y175.501 E31.24024
G1 X143.15 Y175.55 E31.28267
G1 X76.85 Y175.55 E34.59039
G1 X76.082 Y175.51 E34.62876
G1 X75.322 Y175.391 E34.66713
G1 X74.579 Y175.193 E34.7055
G1 X73.86 Y174.919 E34.74388
G1 X73.174 Y174.572 E34.78224
G1 X72.527 Y174.156 E34.82061
G1 X71.927 Y173.675 E34.85898
G1 X71.38 Y173.134 E34.89736
G1 X70.892 Y172.539 E34.93575
G1 X70.469 Y171.897 E34.97411
G1 X70.114 Y171.214 E35.01251
G1 X69.833 Y170.499 E35.05084
G1 X69.627 Y169.757 E35.08926
G1 X69.499 Y168.999 E35.12761
G1 X69.45 Y168.15 E35.17004
G1 X69.45 Y51.85 E40.97227
G1 X69.49 Y51.082 E41.01064
G1 X69.609 Y50.322 E41.04902
G1 X69.807 Y49.579 E41.08738
G1 X70.081 Y48.86 E41.12576
G1 X70.428 Y48.174 E41.16412
G1 X70.844 Y47.527 E41.20249
G0 F7500 X71.242 Y47.661
G1 F1500 X71.721 Y47.087 E41.23979
G1 X72.258 Y46.566 E41.27712
G1 X72.848 Y46.107 E41.31441
G1 X73.484 Y45.712 E41.35177
G1 X74.158 Y45.388 E41.38908
G1 X74.863 Y45.138 E41.42639
G1 X75.591 Y44.964 E41.46374
G1 X76.333 Y44.869 E41.50106
G1 X76.85 Y44.85 E41.52687
G1 X143.15 Y44.85 E44.83459
G1 X143.897 Y44.89 E44.87191
G1 X144.635 Y45.009 E44.90921
G1 X145.357 Y45.207 E44.94656
G1 X146.053 Y45.48 E44.98385
G1 X146.716 Y45.827 E45.02119
G1 X147.339 Y46.242 E45.05853
G1 X147.913 Y46.721 E45.09583
G1 X148.434 Y47.258 E45.13316
G1 X148.893 Y47.848 E45.17045
G1 X149.288 Y48.484 E45.20781
G1 X149.612 Y49.158 E45.24512
G1 X149.862 Y49.863 E45.28243
G1 X150.036 Y50.591 E45.31978
G1 X150.131 Y51.333 E45.3571
G1 X150.15 Y51.85 E45.38291
G1 X150.15 Y168.15 E51.18514
G1 X150.11 Y168.897 E51.22246
G1 X149.991 Y169.635 E51.25976
G1 X149.793 Y170.357 E51.29711
G1 X149.52 Y171.053 E51.33441
G1 X149.173 Y171.716 E51.37174
G1 X148.758 Y172.339 E51.40909
G1 X148.279 Y172.913 E51.44638
G1 X147.742 Y173.434 E51.48371
G1 X147.152 Y173.893 E51.52101
G1 X146.516 Y174.288 E51.55836
G1 X145.842 Y174.612 E51.59567
G1 X145.137 Y174.862 E51.63299
G1 X144.409 Y175.036 E51.67033
G1 X143.667 Y175.131 E51.70765
G1 X143.15 Y175.15 E51.73346
G1 X76.85 Y175.15 E55.04118
G1 X76.103 Y175.11 E55.0785
G1 X75.365 Y174.991 E55.1158
G1 X74.643 Y174.793 E55.15315
G1 X73.947 Y174.52 E55.19045
G1 X73.284 Y174.173 E55.22778
G1 X72.661 Y173.758 E55.26513
G1 X72.087 Y173.279 E55.30242
G1 X71.566 Y172.742 E55.33975
G1 X71.107 Y172.152 E55.37705
G1 X70.712 Y171.516 E55.4144
G1 X70.388 Y170.842 E55.45171
G1 X70.138 Y170.137 E55.48903
G1 X69.964 Y169.409 E55.52637
G1 X69.869 Y168.667 E55.56369
G1 X69.85 Y168.15 E55.5895
G1 X69.85 Y51.85 E61.39173
G1 X69.89 Y51.103 E61.42905
G1 X70.009 Y50.365 E61.46635
G1 X70.207 Y49.643 E61.5037
G1 X70.48 Y48.947 E61.541
G1 X70.827 Y48.284 E61.57833
G1 X71.242 Y47.661 E61.61568
G0 F7500 X71.639 Y47.8
G1 F1500 X72.115 Y47.252 E61.65189
G1 X72.649 Y46.759 E61.68815
G1 X73.234 Y46.329 E61.72437
G1 X73.863 Y45.965 E61.76063
G1 X74.528 Y45.672 E61.79688
G1 X75.221 Y45.454 E61.83313
G1 X75.933 Y45.314 E61.86933
G1 X76.85 Y45.25 E61.91519
G1 X143.15 Y45.25 E65.22291
G1 X143.875 Y45.29 E65.25914
G1 X144.592 Y45.409 E65.2954
G1 X145.291 Y45.607 E65.33164
G1 X145.964 Y45.88 E65.36787
G1 X146.603 Y46.225 E65.4041
G1 X147.2 Y46.639 E65.44035
G1 X147.748 Y47.115 E65.47656
G1 X148.241 Y47.649 E65.51282
G1 X148.671 Y48.234 E65.54904
G1 X149.035 Y48.863 E65.5853
G1 X149.328 Y49.528 E65.62156
G1 X149.546 Y50.221 E65.6578
G1 X149.686 Y50.933 E65.694
G1 X149.75 Y51.85 E65.73986
G1 X149.75 Y168.15 E71.54209
G1 X149.71 Y168.875 E71.57832
G1 X149.591 Y169.592 E71.61458
G1 X149.393 Y170.291 E71.65082
G1 X149.12 Y170.964 E71.68706
G1 X148.775 Y171.603 E71.72329
G1 X148.361 Y172.2 E71.75953
G1 X147.885 Y172.748 E71.79575
G1 X147.351 Y173.241 E71.832
G1 X146.766 Y173.671 E71.86823
G1 X146.137 Y174.035 E71.90448
G1 X145.472 Y174.328 E71.94074
G1 X144.779 Y174.546 E71.97698
G1 X144.067 Y174.686 E72.01318
G1 X143.15 Y174.75 E72.05904
G1 X76.85 Y174.75 E75.36677
G1 X76.125 Y174.71 E75.40299
G1 X75.408 Y174.591 E75.43925
G1 X74.709 Y174.393 E75.4755
G1 X74.036 Y174.12 E75.51173
G1 X73.397 Y173.775 E75.54796
G1 X72.8 Y173.361 E75.5842
G1 X72.252 Y172.885 E75.62042
G1 X71.759 Y172.351 E75.65668
G1 X71.329 Y171.766 E75.6929
G1 X70.965 Y171.137 E75.72916
G1 X70.672 Y170.472 E75.76541
G1 X70.454 Y169.779 E75.80166
G1 X70.314 Y169.067 E75.83786
G1 X70.25 Y168.15 E75.88372
G1 X70.25 Y51.85 E81.68595
G1 X70.29 Y51.125 E81.72217
G1 X70.409 Y50.408 E81.75843
G1 X70.607 Y49.709 E81.79468
G1 X70.88 Y49.036 E81.83091
G1 X71.225 Y48.397 E81.86714
G1 X71.639 Y47.8 E81.90339
G0 F7500 X71.624 Y48.515
G1 F1500 X72.035 Y47.944 E81.93849
G1 X72.509 Y47.423 E81.97363
G1 X73.039 Y46.959 E82.00877
G1 X73.618 Y46.559 E82.04388
G1 X74.239 Y46.227 E82.07901
G1 X74.893 Y45.967 E82.11412
G1 X75.573 Y45.783 E82.14927
G1 X76.269 Y45.677 E82.18439
G1 X76.85 Y45.65 E82.21341
G1 X143.15 Y45.65 E85.52113
G1 X143.853 Y45.69 E85.55626
G1 X144.547 Y45.809 E85.59139
G1 X145.222 Y46.007 E85.62648
G1 X145.871 Y46.279 E85.66159
G1 X146.485 Y46.624 E85.69673
G1 X147.056 Y47.035 E85.73183
G1 X147.577 Y47.509 E85.76697
G1 X148.041 Y48.039 E85.80211
G1 X148.441 Y48.618 E85.83722
G1 X148.773 Y49.239 E85.87235
G1 X149.033 Y49.893 E85.90747
G1 X149.217 Y50.573 E85.94261
G1 X149.323 Y51.269 E85.97773
G1 X149.35 Y51.85 E86.00675
G1 X149.35 Y168.15 E91.80898
G1 X149.31 Y168.853 E91.84411
G1 X149.191 Y169.547 E91.87924
G1 X148.993 Y170.222 E91.91434
G1 X148.721 Y170.871 E91.94944
G1 X148.376 Y171.485 E91.98458
G1 X147.965 Y172.056 E92.01968
G1 X147.491 Y172.577 E92.05482
G1 X146.961 Y173.041 E92.08996
G1 X146.382 Y173.441 E92.12507
G1 X145.761 Y173.773 E92.16021
G1 X145.107 Y174.033 E92.19532
G1 X144.427 Y174.217 E92.23046
G1 X143.731 Y174.323 E92.26559
G1 X143.15 Y174.35 E92.2946
G1 X76.85 Y174.35 E95.60232
G1 X76.147 Y174.31 E95.63745
G1 X75.453 Y174.191 E95.67258
G1 X74.778 Y173.993 E95.70768
G1 X74.129 Y173.721 E95.74279
G1 X73.515 Y173.376 E95.77792
G1 X72.944 Y172.965 E95.81302
G1 X72.423 Y172.491 E95.84816
G1 X71.959 Y171.961 E95.88331
G1 X71.559 Y171.382 E95.91841
G1 X71.227 Y170.761 E95.95355
G1 X70.967 Y170.107 E95.98866
G1 X70.783 Y169.427 E96.0238
G1 X70.677 Y168.731 E96.05893
G1 X70.65 Y168.15 E96.08795
G1 X70.65 Y51.85 E101.89018
G1 X70.69 Y51.147 E101.92531
G1 X70.809 Y50.453 E101.96043
G1 X71.007 Y49.778 E101.99553
G1 X71.279 Y49.129 E102.03064
G1 X71.624 Y48.515 E102.06577
G0 F7500 X72.022 Y48.636
G1 F1500 X72.432 Y48.092 E102.09976
G1 X72.903 Y47.601 E102.1337
G1 X73.428 Y47.167 E102.16769
G1 X74 Y46.798 E102.20165
G1 X74.612 Y46.499 E102.23563
G1 X75.254 Y46.274 E102.26957
G1 X75.919 Y46.125 E102.30357
G1 X76.85 Y46.05 E102.35017
G1 X143.15 Y46.05 E105.65789
G1 X143.83 Y46.09 E105.69187
G1 X144.5 Y46.209 E105.72582
G1 X145.152 Y46.406 E105.7598
G1 X145.776 Y46.678 E105.79376
G1 X146.364 Y47.022 E105.82775
G1 X146.908 Y47.432 E105.86173
G1 X147.399 Y47.903 E105.89568
G1 X147.833 Y48.428 E105.92966
G1 X148.202 Y49 E105.96362
G1 X148.501 Y49.612 E105.9976
G1 X148.726 Y50.254 E106.03154
G1 X148.875 Y50.919 E106.06554
G1 X148.95 Y51.85 E106.11214
G1 X148.95 Y168.15 E111.91437
G1 X148.91 Y168.83 E111.94836
G1 X148.791 Y169.5 E111.98231
G1 X148.594 Y170.152 E112.01629
G1 X148.322 Y170.776 E112.05025
G1 X147.978 Y171.364 E112.08423
G1 X147.568 Y171.908 E112.11822
G1 X147.097 Y172.399 E112.15216
G1 X146.572 Y172.833 E112.18615
G1 X146 Y173.202 E112.22011
G1 X145.388 Y173.501 E112.25409
G1 X144.746 Y173.726 E112.28803
G1 X144.081 Y173.875 E112.32203
G1 X143.15 Y173.95 E112.36863
G1 X76.85 Y173.95 E115.67635
G1 X76.17 Y173.91 E115.71033
G1 X75.5 Y173.791 E115.74428
G1 X74.848 Y173.594 E115.77826
G1 X74.224 Y173.322 E115.81222
G1 X73.636 Y172.978 E115.84621
G1 X73.092 Y172.568 E115.88019
G1 X72.601 Y172.097 E115.91414
G1 X72.167 Y171.572 E115.94812
G1 X71.798 Y171 E115.98208
G1 X71.499 Y170.388 E116.01606
G1 X71.274 Y169.746 E116.05
G1 X71.125 Y169.081 E116.084
G1 X71.05 Y168.15 E116.1306
G1 X71.05 Y51.85 E121.93283
G1 X71.09 Y51.17 E121.96682
G1 X71.209 Y50.5 E122.00076
G1 X71.406 Y49.848 E122.03475
G1 X71.678 Y49.224 E122.06871
G1 X72.022 Y48.636 E122.10269
G0 F7500 X72.42 Y48.762
G1 F1500 X72.828 Y48.247 E122.13547
G1 X73.295 Y47.785 E122.16825
G1 X73.815 Y47.384 E122.20101
G1 X74.379 Y47.048 E122.23376
G1 X74.981 Y46.784 E122.26655
G1 X75.61 Y46.594 E122.29934
G1 X76.257 Y46.483 E122.33209
G1 X76.85 Y46.45 E122.36172
G1 X143.15 Y46.45 E125.66944
G1 X143.806 Y46.49 E125.70223
G1 X144.452 Y46.609 E125.735
G1 X145.079 Y46.806 E125.76779
G1 X145.677 Y47.078 E125.80056
G1 X146.238 Y47.42 E125.83334
G1 X146.753 Y47.828 E125.86612
G1 X147.215 Y48.295 E125.89889
G1 X147.616 Y48.815 E125.93165
G1 X147.952 Y49.379 E125.96441
G1 X148.216 Y49.981 E125.9972
G1 X148.406 Y50.61 E126.02998
G1 X148.517 Y51.257 E126.06273
G1 X148.55 Y51.85 E126.09237
G1 X148.55 Y168.15 E131.8946
G1 X148.51 Y168.806 E131.92738
G1 X148.391 Y169.452 E131.96016
G1 X148.194 Y170.079 E131.99294
G1 X147.922 Y170.677 E132.02572
G1 X147.58 Y171.238 E132.0585
G1 X147.172 Y171.753 E132.09128
G1 X146.705 Y172.215 E132.12405
G1 X146.185 Y172.616 E132.15681
G1 X145.621 Y172.952 E132.18957
G1 X145.019 Y173.216 E132.22236
G1 X144.39 Y173.406 E132.25514
G1 X143.743 Y173.517 E132.28789
G1 X143.15 Y173.55 E132.31752
G1 X76.85 Y173.55 E135.62524
G1 X76.194 Y173.51 E135.65803
G1 X75.548 Y173.391 E135.6908
G1 X74.921 Y173.194 E135.72359
G1 X74.323 Y172.922 E135.75637
G1 X73.762 Y172.58 E135.78915
G1 X73.247 Y172.172 E135.82193
G1 X72.785 Y171.705 E135.8547
G1 X72.384 Y171.185 E135.88746
G1 X72.048 Y170.621 E135.92021
G1 X71.784 Y170.019 E135.95301
G1 X71.594 Y169.39 E135.98579
G1 X71.483 Y168.743 E136.01854
G1 X71.45 Y168.15 E136.04817
G1 X71.45 Y51.85 E141.8504
G1 X71.49 Y51.194 E141.88319
G1 X71.609 Y50.548 E141.91596
G1 X71.806 Y49.921 E141.94875
G1 X72.078 Y49.323 E141.98153
G1 X72.42 Y48.762 E142.01431
G0 F7500 X72.817 Y48.894
G1 F1500 X73.223 Y48.409 E142.04586
G1 X73.686 Y47.979 E142.07739
G1 X74.2 Y47.61 E142.10895
G1 X74.756 Y47.31 E142.14047
G1 X75.345 Y47.082 E142.17198
G1 X75.959 Y46.93 E142.20354
G1 X76.85 Y46.85 E142.24817
G1 X143.15 Y46.85 E145.55589
G1 X143.781 Y46.89 E145.58744
G1 X144.402 Y47.009 E145.61898
G1 X145.002 Y47.206 E145.65049
G1 X145.574 Y47.477 E145.68207
G1 X146.106 Y47.817 E145.71356
G1 X146.591 Y48.223 E145.74512
G1 X147.021 Y48.686 E145.77664
G1 X147.39 Y49.2 E145.80821
G1 X147.69 Y49.756 E145.83973
G1 X147.918 Y50.345 E145.87124
G1 X148.07 Y50.959 E145.9028
G1 X148.15 Y51.85 E145.94743
G1 X148.15 Y168.15 E151.74966
G1 X148.11 Y168.781 E151.7812
G1 X147.991 Y169.402 E151.81275
G1 X147.794 Y170.002 E151.84426
G1 X147.523 Y170.574 E151.87583
G1 X147.183 Y171.106 E151.90733
G1 X146.777 Y171.591 E151.93889
G1 X146.314 Y172.021 E151.97041
G1 X145.8 Y172.39 E152.00198
G1 X145.244 Y172.69 E152.0335
G1 X144.655 Y172.918 E152.06501
G1 X144.041 Y173.07 E152.09657
G1 X143.15 Y173.15 E152.1412
G1 X76.85 Y173.15 E155.44892
G1 X76.219 Y173.11 E155.48046
G1 X75.598 Y172.991 E155.51201
G1 X74.998 Y172.794 E155.54351
G1 X74.426 Y172.523 E155.57509
G1 X73.894 Y172.183 E155.60659
G1 X73.409 Y171.777 E155.63815
G1 X72.979 Y171.314 E155.66967
G1 X72.61 Y170.8 E155.70124
G1 X72.31 Y170.244 E155.73276
G1 X72.082 Y169.655 E155.76427
G1 X71.93 Y169.041 E155.79583
G1 X71.85 Y168.15 E155.84046
G1 X71.85 Y51.85 E161.64269
G1 X71.89 Y51.219 E161.67423
G1 X72.009 Y50.598 E161.70578
G1 X72.206 Y49.998 E161.73728
G1 X72.477 Y49.426 E161.76886
G1 X72.817 Y48.894 E161.80036
G0 F7500 X73.215 Y49.031
G1 F1500 X73.617 Y48.578 E161.83058
G1 X74.075 Y48.181 E161.86082
G1 X74.582 Y47.848 E161.89108
G1 X75.128 Y47.584 E161.92133
G1 X75.704 Y47.395 E161.95158
G1 X76.3 Y47.283 E161.98183
G1 X76.85 Y47.25 E162.00932
G1 X143.15 Y47.25 E165.31704
G1 X143.755 Y47.29 E165.34729
G1 X144.349 Y47.409 E165.37752
G1 X144.923 Y47.605 E165.40778
G1 X145.466 Y47.876 E165.43805
G1 X145.969 Y48.215 E165.46832
G1 X146.422 Y48.617 E165.49853
G1 X146.819 Y49.075 E165.52877
G1 X147.152 Y49.582 E165.55903
G1 X147.416 Y50.128 E165.58929
G1 X147.605 Y50.704 E165.61953
G1 X147.717 Y51.3 E165.64979
G1 X147.75 Y51.85 E165.67728
G1 X147.75 Y168.15 E171.47951
G1 X147.71 Y168.755 E171.50976
G1 X147.591 Y169.349 E171.53998
G1 X147.395 Y169.923 E171.57024
G1 X147.124 Y170.466 E171.60052
G1 X146.785 Y170.969 E171.63078
G1 X146.383 Y171.422 E171.661
G1 X145.925 Y171.819 E171.69124
G1 X145.418 Y172.152 E171.7215
G1 X144.872 Y172.416 E171.75176
G1 X144.296 Y172.605 E171.782
G1 X143.7 Y172.717 E171.81226
G1 X143.15 Y172.75 E171.83974
G1 X76.85 Y172.75 E175.14747
G1 X76.245 Y172.71 E175.17771
G1 X75.651 Y172.591 E175.20794
