;FLAVOR:Marlin
;TIME:8447
;Filament used: 9.29293m
;Layer height: 0.3
;MINX:67.2
;MINY:42.2
;MINZ:0.3
;MAXX:152.8
;MAXY:177.8
;MAXZ:8.7
;Generated with Cura_SteamEngine 4.9.0
M140 S70
M105
M190 S70
M104 S200
M105
M109 S200
M82 ;absolute extrusion mode
G28 ;Home
G1 Z15.0 F2000 ;Move the platform
G92 E0
G92 E0
G1 F1500 E-6.5
;LAYER_COUNT:29
;LAYER:0
M107
M204 S1000
G0 F7500 X68.597 Y45.546 Z0.3
;TYPE:SKIRT
G1 F1500 E0
G1 X69.08 Y44.922 E0.03937
G1 X69.623 Y44.349 E0.07875
G1 X70.222 Y43.834 E0.11816
G1 X70.87 Y43.383 E0.15755
G1 X71.561 Y42.999 E0.19699
G1 X72.286 Y42.687 E0.23637
G1 X73.039 Y42.45 E0.27575
G1 X73.813 Y42.291 E0.31517
G1 X74.598 Y42.21 E0.35455
G1 X75 Y42.2 E0.37461
G1 X145 Y42.2 E3.86692
G1 X145.789 Y42.24 E3.90634
G1 X146.569 Y42.359 E3.9457
G1 X147.334 Y42.557 E3.98512
G1 X148.074 Y42.831 E4.02449
G1 X148.783 Y43.179 E4.0639
G1 X149.454 Y43.597 E4.10334
G1 X150.078 Y44.08 E4.1427
G1 X150.651 Y44.623 E4.18209
G1 X151.166 Y45.222 E4.2215
G1 X151.617 Y45.87 E4.26089
G1 X152.001 Y46.561 E4.30033
G1 X152.313 Y47.286 E4.3397
G1 X152.55 Y48.039 E4.37909
G1 X152.709 Y48.813 E4.41851
G1 X152.79 Y49.598 E4.45788
G1 X152.8 Y50 E4.47794
G1 X152.8 Y170 E10.46477
G1 X152.76 Y170.789 E10.50418
G1 X152.641 Y171.569 E10.54355
G1 X152.443 Y172.334 E10.58297
G1 X152.169 Y173.074 E10.62234
G1 X151.821 Y173.783 E10.66174
G1 X151.403 Y174.454 E10.70118
G1 X150.92 Y175.078 E10.74055
G1 X150.377 Y175.651 E10.77993
G1 X149.778 Y176.166 E10.81935
G1 X149.13 Y176.617 E10.85873
G1 X148.439 Y177.001 E10.89817
G1 X147.714 Y177.313 E10.93755
G1 X146.961 Y177.55 E10.97694
G1 X146.187 Y177.709 E11.01636
G1 X145.402 Y177.79 E11.05573
G1 X145 Y177.8 E11.07579
G1 X75 Y177.8 E14.5681
G1 X74.211 Y177.76 E14.60752
G1 X73.431 Y177.641 E14.64688
G1 X72.666 Y177.443 E14.68631
G1 X71.926 Y177.169 E14.72567
G1 X71.217 Y176.821 E14.76508
G1 X70.546 Y176.403 E14.80452
G1 X69.922 Y175.92 E14.84389
G1 X69.349 Y175.377 E14.88327
G1 X68.834 Y174.778 E14.92268
G1 X68.383 Y174.13 E14.96207
G1 X67.999 Y173.439 E15.00151
G1 X67.687 Y172.714 E15.04089
G1 X67.45 Y171.961 E15.08027
G1 X67.291 Y171.187 E15.11969
G1 X67.21 Y170.402 E15.15906
G1 X67.2 Y170 E15.17913
G1 X67.2 Y50 E21.16595
G1 X67.24 Y49.211 E21.20536
G1 X67.359 Y48.431 E21.24473
G1 X67.557 Y47.666 E21.28415
G1 X67.831 Y46.926 E21.32352
G1 X68.179 Y46.217 E21.36292
G1 X68.597 Y45.546 E21.40237
G0 F7500 X68.994 Y45.677
G1 F1500 X69.475 Y45.077 E21.44073
G1 X70.016 Y44.53 E21.47911
G1 X70.611 Y44.042 E21.51751
G1 X71.253 Y43.619 E21.55586
G1 X71.936 Y43.264 E21.59426
G1 X72.651 Y42.983 E21.63259
G1 X73.393 Y42.777 E21.67101
G1 X74.151 Y42.649 E21.70936
G1 X75 Y42.6 E21.75179
G1 X145 Y42.6 E25.2441
G1 X145.768 Y42.64 E25.28247
G1 X146.528 Y42.759 E25.32085
G1 X147.271 Y42.957 E25.35921
G1 X147.99 Y43.231 E25.3976
G1 X148.676 Y43.578 E25.43595
G1 X149.323 Y43.994 E25.47433
G1 X149.923 Y44.475 E25.5127
G1 X150.47 Y45.016 E25.55108
G1 X150.958 Y45.611 E25.58947
G1 X151.381 Y46.253 E25.62783
G1 X151.736 Y46.936 E25.66623
G1 X152.017 Y47.651 E25.70456
G1 X152.223 Y48.393 E25.74298
G1 X152.351 Y49.151 E25.78133
G1 X152.4 Y50 E25.82376
G1 X152.4 Y170 E31.81058
G1 X152.36 Y170.768 E31.84895
G1 X152.241 Y171.528 E31.88733
G1 X152.043 Y172.271 E31.92569
G1 X151.769 Y172.99 E31.96408
G1 X151.422 Y173.676 E32.00243
G1 X151.006 Y174.323 E32.0408
G1 X150.525 Y174.923 E32.07917
G1 X149.984 Y175.47 E32.11755
G1 X149.389 Y175.958 E32.15594
G1 X148.747 Y176.381 E32.1943
G1 X148.064 Y176.736 E32.2327
G1 X147.349 Y177.017 E32.27103
G1 X146.607 Y177.223 E32.30945
G1 X145.849 Y177.351 E32.3478
G1 X145 Y177.4 E32.39023
G1 X75 Y177.4 E35.88254
G1 X74.232 Y177.36 E35.92091
G1 X73.472 Y177.241 E35.95929
G1 X72.729 Y177.043 E35.99765
G1 X72.01 Y176.769 E36.03604
G1 X71.324 Y176.422 E36.07439
G1 X70.677 Y176.006 E36.11277
G1 X70.077 Y175.525 E36.15114
G1 X69.53 Y174.984 E36.18952
G1 X69.042 Y174.389 E36.22791
G1 X68.619 Y173.747 E36.26627
G1 X68.264 Y173.064 E36.30467
G1 X67.983 Y172.349 E36.343
G1 X67.777 Y171.607 E36.38142
G1 X67.649 Y170.849 E36.41977
G1 X67.6 Y170 E36.46219
G1 X67.6 Y50 E42.44902
G1 X67.64 Y49.232 E42.48739
G1 X67.759 Y48.472 E42.52577
G1 X67.957 Y47.729 E42.56413
G1 X68.231 Y47.01 E42.60251
G1 X68.578 Y46.324 E42.64087
G1 X68.994 Y45.677 E42.67924
G0 F7500 X69.392 Y45.811
G1 F1500 X69.871 Y45.237 E42.71654
G1 X70.408 Y44.716 E42.75387
G1 X70.998 Y44.257 E42.79116
G1 X71.634 Y43.862 E42.82852
G1 X72.308 Y43.538 E42.86583
G1 X73.013 Y43.288 E42.90314
G1 X73.741 Y43.114 E42.94049
G1 X74.483 Y43.019 E42.97781
G1 X75 Y43 E43.00362
G1 X145 Y43 E46.49593
G1 X145.747 Y43.04 E46.53325
G1 X146.485 Y43.159 E46.57055
G1 X147.207 Y43.357 E46.6079
G1 X147.903 Y43.63 E46.6452
G1 X148.566 Y43.977 E46.68253
G1 X149.189 Y44.392 E46.71988
G1 X149.763 Y44.871 E46.75718
G1 X150.284 Y45.408 E46.7945
G1 X150.743 Y45.998 E46.8318
G1 X151.138 Y46.634 E46.86915
G1 X151.462 Y47.308 E46.90646
G1 X151.712 Y48.013 E46.94378
G1 X151.886 Y48.741 E46.98112
G1 X151.981 Y49.483 E47.01844
G1 X152 Y50 E47.04425
G1 X152 Y170 E53.03108
G1 X151.96 Y170.747 E53.0684
G1 X151.841 Y171.485 E53.10569
G1 X151.643 Y172.207 E53.14304
G1 X151.37 Y172.903 E53.18034
G1 X151.023 Y173.566 E53.21768
G1 X150.608 Y174.189 E53.25502
G1 X150.129 Y174.763 E53.29232
G1 X149.592 Y175.284 E53.32965
G1 X149.002 Y175.743 E53.36694
G1 X148.366 Y176.138 E53.40429
G1 X147.692 Y176.462 E53.4416
G1 X146.987 Y176.712 E53.47892
G1 X146.259 Y176.886 E53.51627
G1 X145.517 Y176.981 E53.55359
G1 X145 Y177 E53.5794
G1 X75 Y177 E57.07171
G1 X74.253 Y176.96 E57.10903
G1 X73.515 Y176.841 E57.14633
G1 X72.793 Y176.643 E57.18368
G1 X72.097 Y176.37 E57.22098
G1 X71.434 Y176.023 E57.25831
G1 X70.811 Y175.608 E57.29566
G1 X70.237 Y175.129 E57.33296
G1 X69.716 Y174.592 E57.37028
G1 X69.257 Y174.002 E57.40758
G1 X68.862 Y173.366 E57.44493
G1 X68.538 Y172.692 E57.48224
G1 X68.288 Y171.987 E57.51956
G1 X68.114 Y171.259 E57.5569
G1 X68.019 Y170.517 E57.59422
G1 X68 Y170 E57.62003
G1 X68 Y50 E63.60686
G1 X68.04 Y49.253 E63.64418
G1 X68.159 Y48.515 E63.68147
G1 X68.357 Y47.793 E63.71882
G1 X68.63 Y47.097 E63.75612
G1 X68.977 Y46.434 E63.79346
G1 X69.392 Y45.811 E63.8308
G0 F7500 X69.789 Y45.95
G1 F1500 X70.265 Y45.402 E63.86702
G1 X70.799 Y44.909 E63.90327
G1 X71.384 Y44.479 E63.9395
G1 X72.013 Y44.115 E63.97575
G1 X72.678 Y43.822 E64.01201
G1 X73.371 Y43.604 E64.04825
G1 X74.083 Y43.464 E64.08445
G1 X75 Y43.4 E64.13031
G1 X145 Y43.4 E67.62263
G1 X145.725 Y43.44 E67.65885
G1 X146.442 Y43.559 E67.69511
G1 X147.141 Y43.757 E67.73136
G1 X147.814 Y44.03 E67.76759
G1 X148.453 Y44.375 E67.80382
G1 X149.05 Y44.789 E67.84007
G1 X149.598 Y45.265 E67.87628
G1 X150.091 Y45.799 E67.91254
G1 X150.521 Y46.384 E67.94876
G1 X150.885 Y47.013 E67.98502
G1 X151.178 Y47.678 E68.02127
G1 X151.396 Y48.371 E68.05752
G1 X151.536 Y49.083 E68.09372
G1 X151.6 Y50 E68.13958
G1 X151.6 Y170 E74.12641
G1 X151.56 Y170.725 E74.16263
G1 X151.441 Y171.442 E74.19889
G1 X151.243 Y172.141 E74.23514
G1 X150.97 Y172.814 E74.27137
G1 X150.625 Y173.453 E74.3076
G1 X150.211 Y174.05 E74.34384
G1 X149.735 Y174.598 E74.38006
G1 X149.201 Y175.091 E74.41632
G1 X148.616 Y175.521 E74.45254
G1 X147.987 Y175.885 E74.4888
G1 X147.322 Y176.178 E74.52505
G1 X146.629 Y176.396 E74.56129
G1 X145.917 Y176.536 E74.5975
G1 X145 Y176.6 E74.64336
G1 X75 Y176.6 E78.13567
G1 X74.275 Y176.56 E78.1719
G1 X73.558 Y176.441 E78.20816
G1 X72.859 Y176.243 E78.2444
G1 X72.186 Y175.97 E78.28064
G1 X71.547 Y175.625 E78.31687
G1 X70.95 Y175.211 E78.35311
G1 X70.402 Y174.735 E78.38932
G1 X69.909 Y174.201 E78.42558
G1 X69.479 Y173.616 E78.46181
G1 X69.115 Y172.987 E78.49806
G1 X68.822 Y172.322 E78.53432
G1 X68.604 Y171.629 E78.57056
G1 X68.464 Y170.917 E78.60676
G1 X68.4 Y170 E78.65262
G1 X68.4 Y50 E84.63945
G1 X68.44 Y49.275 E84.67567
G1 X68.559 Y48.558 E84.71193
G1 X68.757 Y47.859 E84.74818
G1 X69.03 Y47.186 E84.78441
G1 X69.375 Y46.547 E84.82064
G1 X69.789 Y45.95 E84.85689
G0 F7500 X69.774 Y46.665
G1 F1500 X70.185 Y46.094 E84.89199
G1 X70.659 Y45.573 E84.92713
G1 X71.189 Y45.109 E84.96227
G1 X71.768 Y44.709 E84.99738
G1 X72.389 Y44.377 E85.03251
G1 X73.043 Y44.117 E85.06762
G1 X73.723 Y43.933 E85.10277
G1 X74.419 Y43.827 E85.13789
G1 X75 Y43.8 E85.16691
G1 X145 Y43.8 E88.65923
G1 X145.703 Y43.84 E88.69435
G1 X146.397 Y43.959 E88.72948
G1 X147.072 Y44.157 E88.76458
G1 X147.721 Y44.429 E88.79969
G1 X148.335 Y44.774 E88.83482
G1 X148.906 Y45.185 E88.86992
G1 X149.427 Y45.659 E88.90506
G1 X149.891 Y46.189 E88.94021
G1 X150.291 Y46.768 E88.97532
G1 X150.623 Y47.389 E89.01045
G1 X150.883 Y48.043 E89.04556
G1 X151.067 Y48.723 E89.0807
G1 X151.173 Y49.419 E89.11583
G1 X151.2 Y50 E89.14485
G1 X151.2 Y170 E95.13167
G1 X151.16 Y170.703 E95.1668
G1 X151.041 Y171.397 E95.20193
G1 X150.843 Y172.072 E95.23702
G1 X150.571 Y172.721 E95.27213
G1 X150.226 Y173.335 E95.30727
G1 X149.815 Y173.906 E95.34237
G1 X149.341 Y174.427 E95.37751
G1 X148.811 Y174.891 E95.41265
G1 X148.232 Y175.291 E95.44776
G1 X147.611 Y175.623 E95.48289
G1 X146.957 Y175.883 E95.518
G1 X146.277 Y176.067 E95.55315
G1 X145.581 Y176.173 E95.58827
G1 X145 Y176.2 E95.61729
G1 X75 Y176.2 E99.10961
G1 X74.297 Y176.16 E99.14474
G1 X73.603 Y176.041 E99.17986
G1 X72.928 Y175.843 E99.21496
G1 X72.279 Y175.571 E99.25007
G1 X71.665 Y175.226 E99.2852
G1 X71.094 Y174.815 E99.3203
G1 X70.573 Y174.341 E99.35544
G1 X70.109 Y173.811 E99.39059
G1 X69.709 Y173.232 E99.4257
G1 X69.377 Y172.611 E99.46083
G1 X69.117 Y171.957 E99.49594
G1 X68.933 Y171.277 E99.53109
G1 X68.827 Y170.581 E99.56621
G1 X68.8 Y170 E99.59523
G1 X68.8 Y50 E105.58205
G1 X68.84 Y49.297 E105.61718
G1 X68.959 Y48.603 E105.65231
G1 X69.157 Y47.928 E105.6874
G1 X69.429 Y47.279 E105.72251
G1 X69.774 Y46.665 E105.75765
G0 F7500 X70.172 Y46.786
G1 F1500 X70.582 Y46.242 E105.79163
G1 X71.053 Y45.751 E105.82558
G1 X71.578 Y45.317 E105.85956
G1 X72.15 Y44.948 E105.89352
G1 X72.762 Y44.649 E105.9275
G1 X73.404 Y44.424 E105.96144
G1 X74.069 Y44.275 E105.99544
G1 X75 Y44.2 E106.04204
G1 X145 Y44.2 E109.53436
G1 X145.68 Y44.24 E109.56834
G1 X146.35 Y44.359 E109.60229
G1 X147.002 Y44.556 E109.63627
G1 X147.626 Y44.828 E109.67023
G1 X148.214 Y45.172 E109.70422
G1 X148.758 Y45.582 E109.7382
G1 X149.249 Y46.053 E109.77215
G1 X149.683 Y46.578 E109.80613
G1 X150.052 Y47.15 E109.84009
G1 X150.351 Y47.762 E109.87407
G1 X150.576 Y48.404 E109.90801
G1 X150.725 Y49.069 E109.94201
G1 X150.8 Y50 E109.98861
G1 X150.8 Y170 E115.97543
G1 X150.76 Y170.68 E116.00942
G1 X150.641 Y171.35 E116.04337
G1 X150.444 Y172.002 E116.07735
G1 X150.172 Y172.626 E116.11131
G1 X149.828 Y173.214 E116.1453
G1 X149.418 Y173.758 E116.17928
G1 X148.947 Y174.249 E116.21323
G1 X148.422 Y174.683 E116.24721
G1 X147.85 Y175.052 E116.28117
G1 X147.238 Y175.351 E116.31515
G1 X146.596 Y175.576 E116.34909
G1 X145.931 Y175.725 E116.38309
G1 X145 Y175.8 E116.42969
G1 X75 Y175.8 E119.922
G1 X74.32 Y175.76 E119.95599
G1 X73.65 Y175.641 E119.98994
G1 X72.998 Y175.444 E120.02392
G1 X72.374 Y175.172 E120.05788
G1 X71.786 Y174.828 E120.09186
G1 X71.242 Y174.418 E120.12585
G1 X70.751 Y173.947 E120.15979
G1 X70.317 Y173.422 E120.19378
G1 X69.948 Y172.85 E120.22774
G1 X69.649 Y172.238 E120.26172
G1 X69.424 Y171.596 E120.29566
G1 X69.275 Y170.931 E120.32966
G1 X69.2 Y170 E120.37626
G1 X69.2 Y50 E126.36308
G1 X69.24 Y49.32 E126.39707
G1 X69.359 Y48.65 E126.43101
G1 X69.556 Y47.998 E126.465
G1 X69.828 Y47.374 E126.49896
G1 X70.172 Y46.786 E126.53294
G0 F7500 X70.57 Y46.912
G1 F1500 X70.978 Y46.397 E126.56572
G1 X71.445 Y45.935 E126.5985
G1 X71.965 Y45.534 E126.63126
G1 X72.529 Y45.198 E126.66401
G1 X73.131 Y44.934 E126.6968
G1 X73.76 Y44.744 E126.72959
G1 X74.407 Y44.633 E126.76234
G1 X75 Y44.6 E126.79197
G1 X145 Y44.6 E130.28428
G1 X145.656 Y44.64 E130.31707
G1 X146.302 Y44.759 E130.34984
G1 X146.929 Y44.956 E130.38263
G1 X147.527 Y45.228 E130.41541
G1 X148.088 Y45.57 E130.44818
G1 X148.603 Y45.978 E130.48096
G1 X149.065 Y46.445 E130.51374
G1 X149.466 Y46.965 E130.5465
G1 X149.802 Y47.529 E130.57925
G1 X150.066 Y48.131 E130.61205
G1 X150.256 Y48.76 E130.64483
G1 X150.367 Y49.407 E130.67758
G1 X150.4 Y50 E130.70721
G1 X150.4 Y170 E136.69403
G1 X150.36 Y170.656 E136.72682
G1 X150.241 Y171.302 E136.75959
G1 X150.044 Y171.929 E136.79238
G1 X149.772 Y172.527 E136.82516
G1 X149.43 Y173.088 E136.85794
G1 X149.022 Y173.603 E136.89072
G1 X148.555 Y174.065 E136.92349
G1 X148.035 Y174.466 E136.95625
G1 X147.471 Y174.802 E136.989
G1 X146.869 Y175.066 E137.0218
G1 X146.24 Y175.256 E137.05458
G1 X145.593 Y175.367 E137.08733
G1 X145 Y175.4 E137.11696
G1 X75 Y175.4 E140.60928
G1 X74.344 Y175.36 E140.64206
G1 X73.698 Y175.241 E140.67484
G1 X73.071 Y175.044 E140.70762
G1 X72.473 Y174.772 E140.7404
G1 X71.912 Y174.43 E140.77318
G1 X71.397 Y174.022 E140.80596
G1 X70.935 Y173.555 E140.83873
G1 X70.534 Y173.035 E140.87149
G1 X70.198 Y172.471 E140.90425
G1 X69.934 Y171.869 E140.93704
G1 X69.744 Y171.24 E140.96982
G1 X69.633 Y170.593 E141.00257
G1 X69.6 Y170 E141.0322
G1 X69.6 Y50 E147.01903
G1 X69.64 Y49.344 E147.05182
G1 X69.759 Y48.698 E147.08459
G1 X69.956 Y48.071 E147.11738
G1 X70.228 Y47.473 E147.15015
G1 X70.57 Y46.912 E147.18293
G0 F7500 X70.967 Y47.044
G1 F1500 X71.373 Y46.559 E147.21449
G1 X71.836 Y46.129 E147.24601
G1 X72.35 Y45.76 E147.27758
G1 X72.906 Y45.46 E147.3091
G1 X73.495 Y45.232 E147.34061
G1 X74.109 Y45.08 E147.37217
G1 X75 Y45 E147.4168
G1 X145 Y45 E150.90911
G1 X145.631 Y45.04 E150.94065
G1 X146.252 Y45.159 E150.9722
G1 X146.852 Y45.356 E151.00371
G1 X147.424 Y45.627 E151.03528
G1 X147.956 Y45.967 E151.06678
G1 X148.441 Y46.373 E151.09834
G1 X148.871 Y46.836 E151.12986
G1 X149.24 Y47.35 E151.16143
G1 X149.54 Y47.906 E151.19295
G1 X149.768 Y48.495 E151.22446
G1 X149.92 Y49.109 E151.25602
G1 X150 Y50 E151.30065
G1 X150 Y170 E157.28747
G1 X149.96 Y170.631 E157.31902
G1 X149.841 Y171.252 E157.35056
G1 X149.644 Y171.852 E157.38207
G1 X149.373 Y172.424 E157.41365
G1 X149.033 Y172.956 E157.44515
G1 X148.627 Y173.441 E157.4767
G1 X148.164 Y173.871 E157.50823
G1 X147.65 Y174.24 E157.53979
G1 X147.094 Y174.54 E157.57131
G1 X146.505 Y174.768 E157.60282
G1 X145.891 Y174.92 E157.63438
G1 X145 Y175 E157.67901
G1 X75 Y175 E161.17133
G1 X74.369 Y174.96 E161.20287
G1 X73.748 Y174.841 E161.23441
G1 X73.148 Y174.644 E161.26592
G1 X72.576 Y174.373 E161.2975
G1 X72.044 Y174.033 E161.329
G1 X71.559 Y173.627 E161.36055
G1 X71.129 Y173.164 E161.39208
G1 X70.76 Y172.65 E161.42365
G1 X70.46 Y172.094 E161.45516
G1 X70.232 Y171.505 E161.48667
G1 X70.08 Y170.891 E161.51823
G1 X70 Y170 E161.56286
G1 X70 Y50 E167.54969
G1 X70.04 Y49.369 E167.58123
G1 X70.159 Y48.748 E167.61278
G1 X70.356 Y48.148 E167.64428
G1 X70.627 Y47.576 E167.67586
G1 X70.967 Y47.044 E167.70736
G0 F7500 X71.365 Y47.181
G1 F1500 X71.767 Y46.728 E167.73758
G1 X72.225 Y46.331 E167.76782
G1 X72.732 Y45.998 E167.79808
G1 X73.278 Y45.734 E167.82833
G1 X73.854 Y45.545 E167.85858
G1 X74.45 Y45.433 E167.88883
G1 X75 Y45.4 E167.91632
G1 X145 Y45.4 E171.40864
G1 X145.605 Y45.44 E171.43889
G1 X146.199 Y45.559 E171.46911
G1 X146.773 Y45.755 E171.49937
G1 X147.316 Y46.026 E171.52965
G1 X147.819 Y46.365 E171.55991
G1 X148.272 Y46.767 E171.59013
G1 X148.669 Y47.225 E171.62036
G1 X149.002 Y47.732 E171.65063
G1 X149.266 Y48.278 E171.68088
G1 X149.455 Y48.854 E171.71113
G1 X149.567 Y49.45 E171.74138
G1 X149.6 Y50 E171.76887
G1 X149.6 Y170 E177.7557
G1 X149.56 Y170.605 E177.78595
G1 X149.441 Y171.199 E177.81617
G1 X149.245 Y171.773 E177.84643
G1 X148.974 Y172.316 E177.87671
G1 X148.635 Y172.819 E177.90697
G1 X148.233 Y173.272 E177.93719
G1 X147.775 Y173.669 E177.96742
G1 X147.268 Y174.002 E177.99769
G1 X146.722 Y174.266 E178.02794
G1 X146.146 Y174.455 E178.05819
G1 X145.55 Y174.567 E178.08844
G1 X145 Y174.6 E178.11593
G1 X75 Y174.6 E181.60825
G1 X74.395 Y174.56 E181.6385
G1 X73.801 Y174.441 E181.66872
G1 X73.227 Y174.245 E181.69898
G1 X72.684 Y173.974 E181.72926
G1 X72.181 Y173.635 E181.75952
G1 X71.728 Y173.233 E181.78973
G1 X71.331 Y172.775 E181.81997
G1 X70.998 Y172.268 E181.85024
G1 X70.734 Y171.722 E181.88049
G1 X70.545 Y171.146 E181.91074
G1 X70.433 Y170.55 E181.94099
